( This gcode generated by C:/Program Files (x86)/EAGLE-6.1.0/ulp/pcb-gcode.ulp )
( Copyright 2005 by John Johnson. See readme.txt for licensing terms. )

( This file generated from the board C:/mygcode/demo2.brd )
( This file generated 21/06/2012 21:50:29 )

G21

G90
G00 Z12.7000 
G00 X0 Y0
M03
G00 Z0.5080 
G00 X-38.3819 Y16.4729 
G01 Z-0.2540 F254.00 
G01 X-38.3819 Y16.5471 
G01 X-38.3627 Y16.6188 
G01 X-38.3256 Y16.6831 
G01 X-35.7331 Y19.2756 
G01 X-35.6688 Y19.3127 
G01 X-35.5971 Y19.3319 
G01 X-32.9829 Y19.3319 
G01 X-32.9112 Y19.3127 
G01 X-32.8469 Y19.2756 
G01 X-32.2119 Y18.6406 
G01 X-32.2119 Y18.6406 
G01 X-32.1594 Y18.5881 
G01 X-32.1433 Y18.5603 
G01 X-32.0108 Y18.5054 
G01 X-31.8814 Y18.4190 
G01 X-31.7714 Y18.3090 
G01 X-31.6850 Y18.1796 
G01 X-31.6254 Y18.0358 
G01 X-31.5951 Y17.8832 
G01 X-31.5951 Y16.4068 
G01 X-31.6254 Y16.2542 
G01 X-31.6850 Y16.1104 
G01 X-31.7714 Y15.9810 
G01 X-31.8814 Y15.8710 
G01 X-32.0108 Y15.7846 
G01 X-32.1546 Y15.7250 
G01 X-32.3072 Y15.6947 
G01 X-32.4628 Y15.6947 
G01 X-32.6154 Y15.7250 
G01 X-32.7592 Y15.7846 
G01 X-32.8886 Y15.8710 
G01 X-32.9986 Y15.9810 
G01 X-33.0850 Y16.1104 
G01 X-33.1446 Y16.2542 
G01 X-33.1749 Y16.4068 
G01 X-33.1749 Y17.8832 
G01 X-33.1446 Y18.0358 
G01 X-33.0850 Y18.1796 
G01 X-32.9986 Y18.3090 
G01 X-32.8886 Y18.4190 
G01 X-32.8281 Y18.4594 
G01 X-33.1368 Y18.7681 
G01 X-35.4432 Y18.7681 
G01 X-37.8181 Y16.3932 
G01 X-37.8181 Y7.6683 
G01 X-37.7499 Y7.6400 
G01 X-37.6288 Y7.5591 
G01 X-37.5259 Y7.4562 
G01 X-37.4450 Y7.3351 
G01 X-37.3893 Y7.2006 
G01 X-37.3609 Y7.0578 
G01 X-37.3609 Y6.9122 
G01 X-37.3893 Y6.7694 
G01 X-37.4450 Y6.6349 
G01 X-37.5259 Y6.5138 
G01 X-37.6288 Y6.4109 
G01 X-37.7499 Y6.3300 
G01 X-37.8844 Y6.2743 
G01 X-38.0272 Y6.2459 
G01 X-38.1728 Y6.2459 
G01 X-38.3156 Y6.2743 
G01 X-38.4501 Y6.3300 
G01 X-38.5712 Y6.4109 
G01 X-38.6741 Y6.5138 
G01 X-38.7550 Y6.6349 
G01 X-38.8107 Y6.7694 
G01 X-38.8391 Y6.9122 
G01 X-38.8391 Y7.0578 
G01 X-38.8107 Y7.2006 
G01 X-38.7550 Y7.3351 
G01 X-38.6741 Y7.4562 
G01 X-38.5712 Y7.5591 
G01 X-38.4501 Y7.6400 
G01 X-38.3819 Y7.6683 
G01 X-38.3819 Y16.4729 
G00 Z0.5080 
G00 X-39.6495 Y20.8392 
G01 Z-0.2540 F254.00 
G01 X-39.7485 Y20.9381 
G01 X-39.7485 Y20.7402 
G01 X-39.7827 Y20.5679 
G01 X-39.8499 Y20.4057 
G01 X-39.9475 Y20.2597 
G01 X-40.0717 Y20.1355 
G01 X-40.2177 Y20.0379 
G01 X-40.3799 Y19.9707 
G01 X-40.5522 Y19.9365 
G01 X-40.7278 Y19.9365 
G01 X-40.9001 Y19.9707 
G01 X-41.0623 Y20.0379 
G01 X-41.2083 Y20.1355 
G01 X-41.3325 Y20.2597 
G01 X-41.4301 Y20.4057 
G01 X-41.4973 Y20.5679 
G01 X-41.5315 Y20.7402 
G01 X-41.5315 Y22.4398 
G01 X-41.4973 Y22.6121 
G01 X-41.4301 Y22.7743 
G01 X-41.3325 Y22.9203 
G01 X-41.2083 Y23.0445 
G01 X-41.0623 Y23.1421 
G01 X-40.9001 Y23.2093 
G01 X-40.7278 Y23.2435 
G01 X-40.5522 Y23.2435 
G01 X-40.3799 Y23.2093 
G01 X-40.2177 Y23.1421 
G01 X-40.0717 Y23.0445 
G01 X-39.9475 Y22.9203 
G01 X-39.8499 Y22.7743 
G01 X-39.7827 Y22.6121 
G01 X-39.7485 Y22.4398 
G01 X-39.7485 Y21.7288 
G01 X-39.1463 Y21.1266 
G01 X-39.1095 Y21.0629 
G01 X-39.0905 Y20.9918 
G01 X-39.0905 Y8.9323 
G01 X-39.0229 Y8.9043 
G01 X-38.9029 Y8.8242 
G01 X-38.8008 Y8.7221 
G01 X-38.7207 Y8.6021 
G01 X-38.6654 Y8.4687 
G01 X-38.6373 Y8.3272 
G01 X-38.6373 Y8.1828 
G01 X-38.6654 Y8.0413 
G01 X-38.7207 Y7.9079 
G01 X-38.8008 Y7.7879 
G01 X-38.9029 Y7.6858 
G01 X-39.0229 Y7.6057 
G01 X-39.1563 Y7.5504 
G01 X-39.2978 Y7.5223 
G01 X-39.4422 Y7.5223 
G01 X-39.5837 Y7.5504 
G01 X-39.7171 Y7.6057 
G01 X-39.8371 Y7.6858 
G01 X-39.9392 Y7.7879 
G01 X-40.0193 Y7.9079 
G01 X-40.0746 Y8.0413 
G01 X-40.1027 Y8.1828 
G01 X-40.1027 Y8.3272 
G01 X-40.0746 Y8.4687 
G01 X-40.0193 Y8.6021 
G01 X-39.9392 Y8.7221 
G01 X-39.8371 Y8.8242 
G01 X-39.7171 Y8.9043 
G01 X-39.6495 Y8.9323 
G01 X-39.6495 Y20.8392 
G00 Z0.5080 
G00 X-25.4533 Y20.9634 
G01 Z-0.2540 F254.00 
G01 X-25.4533 Y22.2166 
G01 X-25.4269 Y22.3496 
G01 X-25.3750 Y22.4748 
G01 X-25.2997 Y22.5876 
G01 X-25.2038 Y22.6835 
G01 X-25.0911 Y22.7588 
G01 X-24.9658 Y22.8107 
G01 X-24.8328 Y22.8371 
G01 X-24.6972 Y22.8371 
G01 X-24.5642 Y22.8107 
G01 X-24.4389 Y22.7588 
G01 X-24.3262 Y22.6835 
G01 X-24.2303 Y22.5876 
G01 X-24.1550 Y22.4748 
G01 X-24.1031 Y22.3496 
G01 X-24.0767 Y22.2166 
G01 X-24.0767 Y20.9634 
G01 X-24.1031 Y20.8304 
G01 X-24.1550 Y20.7051 
G01 X-24.2303 Y20.5924 
G01 X-24.3262 Y20.4965 
G01 X-24.4389 Y20.4212 
G01 X-24.5642 Y20.3693 
G01 X-24.6972 Y20.3429 
G01 X-24.8328 Y20.3429 
G01 X-24.9658 Y20.3693 
G01 X-25.0911 Y20.4212 
G01 X-25.2038 Y20.4965 
G01 X-25.2997 Y20.5924 
G01 X-25.3750 Y20.7051 
G01 X-25.4269 Y20.8304 
G01 X-25.4533 Y20.9634 
G00 Z0.5080 
G00 X-20.3733 Y20.9634 
G01 Z-0.2540 F254.00 
G01 X-20.3733 Y22.2166 
G01 X-20.3469 Y22.3496 
G01 X-20.2950 Y22.4748 
G01 X-20.2197 Y22.5876 
G01 X-20.1238 Y22.6835 
G01 X-20.0111 Y22.7588 
G01 X-19.8858 Y22.8107 
G01 X-19.7528 Y22.8371 
G01 X-19.6172 Y22.8371 
G01 X-19.4842 Y22.8107 
G01 X-19.3589 Y22.7588 
G01 X-19.2462 Y22.6835 
G01 X-19.1503 Y22.5876 
G01 X-19.0750 Y22.4748 
G01 X-19.0231 Y22.3496 
G01 X-18.9967 Y22.2166 
G01 X-18.9967 Y20.9634 
G01 X-19.0231 Y20.8304 
G01 X-19.0750 Y20.7051 
G01 X-19.1503 Y20.5924 
G01 X-19.2462 Y20.4965 
G01 X-19.3589 Y20.4212 
G01 X-19.4842 Y20.3693 
G01 X-19.6172 Y20.3429 
G01 X-19.7528 Y20.3429 
G01 X-19.8858 Y20.3693 
G01 X-20.0111 Y20.4212 
G01 X-20.1238 Y20.4965 
G01 X-20.2197 Y20.5924 
G01 X-20.2950 Y20.7051 
G01 X-20.3469 Y20.8304 
G01 X-20.3733 Y20.9634 
G00 Z0.5080 
G00 X-2.6949 Y6.6578 
G01 Z-0.2540 F254.00 
G01 X-2.6949 Y7.3122 
G01 X-2.2322 Y7.7749 
G01 X-1.5778 Y7.7749 
G01 X-1.1151 Y7.3122 
G01 X-1.1151 Y6.6578 
G01 X-1.5778 Y6.1951 
G01 X-2.2322 Y6.1951 
G01 X-2.6949 Y6.6578 
G00 Z0.5080 
G00 X-2.6949 Y18.0878 
G01 Z-0.2540 F254.00 
G01 X-2.6949 Y18.7422 
G01 X-2.2322 Y19.2049 
G01 X-1.5778 Y19.2049 
G01 X-1.1151 Y18.7422 
G01 X-1.1151 Y18.0878 
G01 X-1.5778 Y17.6251 
G01 X-2.2322 Y17.6251 
G01 X-2.6949 Y18.0878 
G00 Z0.5080 
G00 X-7.7749 Y18.3372 
G01 Z-0.2540 F254.00 
G01 X-7.7749 Y18.4928 
G01 X-7.7446 Y18.6454 
G01 X-7.6850 Y18.7892 
G01 X-7.5986 Y18.9186 
G01 X-7.4886 Y19.0286 
G01 X-7.3592 Y19.1150 
G01 X-7.2154 Y19.1746 
G01 X-7.0628 Y19.2049 
G01 X-6.9072 Y19.2049 
G01 X-6.7546 Y19.1746 
G01 X-6.6108 Y19.1150 
G01 X-6.4814 Y19.0286 
G01 X-6.3714 Y18.9186 
G01 X-6.2850 Y18.7892 
G01 X-6.2254 Y18.6454 
G01 X-6.1951 Y18.4928 
G01 X-6.1951 Y18.3372 
G01 X-6.2254 Y18.1846 
G01 X-6.2850 Y18.0408 
G01 X-6.3714 Y17.9114 
G01 X-6.4814 Y17.8014 
G01 X-6.6108 Y17.7150 
G01 X-6.7546 Y17.6554 
G01 X-6.9072 Y17.6251 
G01 X-7.0628 Y17.6251 
G01 X-7.2154 Y17.6554 
G01 X-7.3592 Y17.7150 
G01 X-7.4886 Y17.8014 
G01 X-7.5986 Y17.9114 
G01 X-7.6850 Y18.0408 
G01 X-7.7446 Y18.1846 
G01 X-7.7749 Y18.3372 
G00 Z0.5080 
G00 X-22.9632 Y7.1399 
G01 Z-0.2540 F254.00 
G01 X-21.4868 Y7.1399 
G01 X-21.3342 Y7.1096 
G01 X-21.1904 Y7.0500 
G01 X-21.0610 Y6.9636 
G01 X-20.9510 Y6.8536 
G01 X-20.8646 Y6.7242 
G01 X-20.8050 Y6.5804 
G01 X-20.7747 Y6.4278 
G01 X-20.7747 Y6.2722 
G01 X-20.8050 Y6.1196 
G01 X-20.8646 Y5.9758 
G01 X-20.9510 Y5.8464 
G01 X-21.0610 Y5.7364 
G01 X-21.1904 Y5.6500 
G01 X-21.3342 Y5.5904 
G01 X-21.4868 Y5.5601 
G01 X-22.9632 Y5.5601 
G01 X-23.1158 Y5.5904 
G01 X-23.2596 Y5.6500 
G01 X-23.3890 Y5.7364 
G01 X-23.4990 Y5.8464 
G01 X-23.5854 Y5.9758 
G01 X-23.6450 Y6.1196 
G01 X-23.6753 Y6.2722 
G01 X-23.6753 Y6.4278 
G01 X-23.6450 Y6.5804 
G01 X-23.5854 Y6.7242 
G01 X-23.4990 Y6.8536 
G01 X-23.3890 Y6.9636 
G01 X-23.2596 Y7.0500 
G01 X-23.1158 Y7.1096 
G01 X-22.9632 Y7.1399 
G00 Z0.5080 
G00 X-33.1232 Y7.1399 
G01 Z-0.2540 F254.00 
G01 X-31.6468 Y7.1399 
G01 X-31.4942 Y7.1096 
G01 X-31.3504 Y7.0500 
G01 X-31.2210 Y6.9636 
G01 X-31.1110 Y6.8536 
G01 X-31.0246 Y6.7242 
G01 X-30.9650 Y6.5804 
G01 X-30.9347 Y6.4278 
G01 X-30.9347 Y6.2722 
G01 X-30.9650 Y6.1196 
G01 X-31.0246 Y5.9758 
G01 X-31.1110 Y5.8464 
G01 X-31.2210 Y5.7364 
G01 X-31.3504 Y5.6500 
G01 X-31.4942 Y5.5904 
G01 X-31.6468 Y5.5601 
G01 X-33.1232 Y5.5601 
G01 X-33.2758 Y5.5904 
G01 X-33.4196 Y5.6500 
G01 X-33.5490 Y5.7364 
G01 X-33.6590 Y5.8464 
G01 X-33.7454 Y5.9758 
G01 X-33.8050 Y6.1196 
G01 X-33.8353 Y6.2722 
G01 X-33.8353 Y6.4278 
G01 X-33.8050 Y6.5804 
G01 X-33.7454 Y6.7242 
G01 X-33.6590 Y6.8536 
G01 X-33.5490 Y6.9636 
G01 X-33.4196 Y7.0500 
G01 X-33.2758 Y7.1096 
G01 X-33.1232 Y7.1399 
G00 Z0.5080 
G00 X-13.8151 Y10.2632 
G01 Z-0.2540 F254.00 
G01 X-13.8151 Y8.7868 
G01 X-13.8454 Y8.6342 
G01 X-13.9050 Y8.4904 
G01 X-13.9914 Y8.3610 
G01 X-14.1014 Y8.2510 
G01 X-14.2308 Y8.1646 
G01 X-14.3746 Y8.1050 
G01 X-14.5272 Y8.0747 
G01 X-14.6828 Y8.0747 
G01 X-14.8354 Y8.1050 
G01 X-14.9792 Y8.1646 
G01 X-15.1086 Y8.2510 
G01 X-15.2186 Y8.3610 
G01 X-15.3050 Y8.4904 
G01 X-15.3646 Y8.6342 
G01 X-15.3949 Y8.7868 
G01 X-15.3949 Y10.2632 
G01 X-15.3646 Y10.4158 
G01 X-15.3050 Y10.5596 
G01 X-15.2186 Y10.6890 
G01 X-15.1086 Y10.7990 
G01 X-14.9792 Y10.8854 
G01 X-14.8354 Y10.9450 
G01 X-14.6828 Y10.9753 
G01 X-14.5272 Y10.9753 
G01 X-14.3746 Y10.9450 
G01 X-14.2308 Y10.8854 
G01 X-14.1014 Y10.7990 
G01 X-13.9914 Y10.6890 
G01 X-13.9050 Y10.5596 
G01 X-13.8454 Y10.4158 
G01 X-13.8151 Y10.2632 
G00 Z0.5080 
G00 X-16.3551 Y10.2632 
G01 Z-0.2540 F254.00 
G01 X-16.3551 Y8.7868 
G01 X-16.3854 Y8.6342 
G01 X-16.4450 Y8.4904 
G01 X-16.5314 Y8.3610 
G01 X-16.6414 Y8.2510 
G01 X-16.7708 Y8.1646 
G01 X-16.9146 Y8.1050 
G01 X-17.0672 Y8.0747 
G01 X-17.2228 Y8.0747 
G01 X-17.3754 Y8.1050 
G01 X-17.5192 Y8.1646 
G01 X-17.6486 Y8.2510 
G01 X-17.7586 Y8.3610 
G01 X-17.8450 Y8.4904 
G01 X-17.9046 Y8.6342 
G01 X-17.9349 Y8.7868 
G01 X-17.9349 Y10.2632 
G01 X-17.9046 Y10.4158 
G01 X-17.8450 Y10.5596 
G01 X-17.7586 Y10.6890 
G01 X-17.6486 Y10.7990 
G01 X-17.5192 Y10.8854 
G01 X-17.3754 Y10.9450 
G01 X-17.2228 Y10.9753 
G01 X-17.0672 Y10.9753 
G01 X-16.9146 Y10.9450 
G01 X-16.7708 Y10.8854 
G01 X-16.6414 Y10.7990 
G01 X-16.5314 Y10.6890 
G01 X-16.4450 Y10.5596 
G01 X-16.3854 Y10.4158 
G01 X-16.3551 Y10.2632 
G00 Z0.5080 
G00 X-18.8951 Y10.2632 
G01 Z-0.2540 F254.00 
G01 X-18.8951 Y8.7868 
G01 X-18.9254 Y8.6342 
G01 X-18.9850 Y8.4904 
G01 X-19.0714 Y8.3610 
G01 X-19.1814 Y8.2510 
G01 X-19.3108 Y8.1646 
G01 X-19.4546 Y8.1050 
G01 X-19.6072 Y8.0747 
G01 X-19.7628 Y8.0747 
G01 X-19.9154 Y8.1050 
G01 X-20.0592 Y8.1646 
G01 X-20.1886 Y8.2510 
G01 X-20.2986 Y8.3610 
G01 X-20.3850 Y8.4904 
G01 X-20.4446 Y8.6342 
G01 X-20.4749 Y8.7868 
G01 X-20.4749 Y10.2632 
G01 X-20.4446 Y10.4158 
G01 X-20.3850 Y10.5596 
G01 X-20.2986 Y10.6890 
G01 X-20.1886 Y10.7990 
G01 X-20.0592 Y10.8854 
G01 X-19.9154 Y10.9450 
G01 X-19.7628 Y10.9753 
G01 X-19.6072 Y10.9753 
G01 X-19.4546 Y10.9450 
G01 X-19.3108 Y10.8854 
G01 X-19.1814 Y10.7990 
G01 X-19.0714 Y10.6890 
G01 X-18.9850 Y10.5596 
G01 X-18.9254 Y10.4158 
G01 X-18.8951 Y10.2632 
G00 Z0.5080 
G00 X-21.4351 Y10.2632 
G01 Z-0.2540 F254.00 
G01 X-21.4351 Y8.7868 
G01 X-21.4654 Y8.6342 
G01 X-21.5250 Y8.4904 
G01 X-21.6114 Y8.3610 
G01 X-21.7214 Y8.2510 
G01 X-21.8508 Y8.1646 
G01 X-21.9946 Y8.1050 
G01 X-22.1472 Y8.0747 
G01 X-22.3028 Y8.0747 
G01 X-22.4554 Y8.1050 
G01 X-22.5992 Y8.1646 
G01 X-22.7286 Y8.2510 
G01 X-22.8386 Y8.3610 
G01 X-22.9250 Y8.4904 
G01 X-22.9846 Y8.6342 
G01 X-23.0149 Y8.7868 
G01 X-23.0149 Y10.2632 
G01 X-22.9846 Y10.4158 
G01 X-22.9250 Y10.5596 
G01 X-22.8386 Y10.6890 
G01 X-22.7286 Y10.7990 
G01 X-22.5992 Y10.8854 
G01 X-22.4554 Y10.9450 
G01 X-22.3028 Y10.9753 
G01 X-22.1472 Y10.9753 
G01 X-21.9946 Y10.9450 
G01 X-21.8508 Y10.8854 
G01 X-21.7214 Y10.7990 
G01 X-21.6114 Y10.6890 
G01 X-21.5250 Y10.5596 
G01 X-21.4654 Y10.4158 
G01 X-21.4351 Y10.2632 
G00 Z0.5080 
G00 X-23.9751 Y10.2632 
G01 Z-0.2540 F254.00 
G01 X-23.9751 Y8.7868 
G01 X-24.0054 Y8.6342 
G01 X-24.0650 Y8.4904 
G01 X-24.1514 Y8.3610 
G01 X-24.2614 Y8.2510 
G01 X-24.3908 Y8.1646 
G01 X-24.5346 Y8.1050 
G01 X-24.6872 Y8.0747 
G01 X-24.8428 Y8.0747 
G01 X-24.9954 Y8.1050 
G01 X-25.1392 Y8.1646 
G01 X-25.2686 Y8.2510 
G01 X-25.3786 Y8.3610 
G01 X-25.4650 Y8.4904 
G01 X-25.5246 Y8.6342 
G01 X-25.5549 Y8.7868 
G01 X-25.5549 Y10.2632 
G01 X-25.5246 Y10.4158 
G01 X-25.4650 Y10.5596 
G01 X-25.3786 Y10.6890 
G01 X-25.2686 Y10.7990 
G01 X-25.2512 Y10.8106 
G01 X-26.3013 Y11.8607 
G01 X-26.3451 Y11.9366 
G01 X-26.3677 Y12.0212 
G01 X-26.3677 Y20.1822 
G01 X-27.7070 Y21.5215 
G01 X-27.7244 Y21.5143 
G01 X-27.8672 Y21.4859 
G01 X-28.0128 Y21.4859 
G01 X-28.1556 Y21.5143 
G01 X-28.2901 Y21.5700 
G01 X-28.4112 Y21.6509 
G01 X-28.5141 Y21.7538 
G01 X-28.5950 Y21.8749 
G01 X-28.6507 Y22.0094 
G01 X-28.6791 Y22.1522 
G01 X-28.6791 Y22.2978 
G01 X-28.6507 Y22.4406 
G01 X-28.5950 Y22.5751 
G01 X-28.5141 Y22.6962 
G01 X-28.4112 Y22.7991 
G01 X-28.2901 Y22.8800 
G01 X-28.1556 Y22.9357 
G01 X-28.0128 Y22.9641 
G01 X-27.8672 Y22.9641 
G01 X-27.7244 Y22.9357 
G01 X-27.5899 Y22.8800 
G01 X-27.4688 Y22.7991 
G01 X-27.3659 Y22.6962 
G01 X-27.2850 Y22.5751 
G01 X-27.2293 Y22.4406 
G01 X-27.2009 Y22.2978 
G01 X-27.2009 Y22.1522 
G01 X-27.2293 Y22.0094 
G01 X-27.2365 Y21.9920 
G01 X-25.8307 Y20.5863 
G01 X-25.7687 Y20.5243 
G01 X-25.7249 Y20.4484 
G01 X-25.7023 Y20.3638 
G01 X-25.7023 Y12.2028 
G01 X-24.5607 Y11.0613 
G01 X-24.4987 Y10.9993 
G01 X-24.4549 Y10.9234 
G01 X-24.4515 Y10.9106 
G01 X-24.3908 Y10.8854 
G01 X-24.2614 Y10.7990 
G01 X-24.1514 Y10.6890 
G01 X-24.0650 Y10.5596 
G01 X-24.0054 Y10.4158 
G01 X-23.9751 Y10.2632 
G00 Z0.5080 
G00 X-26.5151 Y10.2632 
G01 Z-0.2540 F254.00 
G01 X-26.5151 Y8.7868 
G01 X-26.5454 Y8.6342 
G01 X-26.6050 Y8.4904 
G01 X-26.6914 Y8.3610 
G01 X-26.8014 Y8.2510 
G01 X-26.9308 Y8.1646 
G01 X-27.0746 Y8.1050 
G01 X-27.2272 Y8.0747 
G01 X-27.3828 Y8.0747 
G01 X-27.5354 Y8.1050 
G01 X-27.6792 Y8.1646 
G01 X-27.8086 Y8.2510 
G01 X-27.9186 Y8.3610 
G01 X-28.0050 Y8.4904 
G01 X-28.0646 Y8.6342 
G01 X-28.0949 Y8.7868 
G01 X-28.0949 Y10.2632 
G01 X-28.0646 Y10.4158 
G01 X-28.0050 Y10.5596 
G01 X-27.9186 Y10.6890 
G01 X-27.8086 Y10.7990 
G01 X-27.6792 Y10.8854 
G01 X-27.5354 Y10.9450 
G01 X-27.3828 Y10.9753 
G01 X-27.2272 Y10.9753 
G01 X-27.0746 Y10.9450 
G01 X-26.9308 Y10.8854 
G01 X-26.8014 Y10.7990 
G01 X-26.6914 Y10.6890 
G01 X-26.6050 Y10.5596 
G01 X-26.5454 Y10.4158 
G01 X-26.5151 Y10.2632 
G00 Z0.5080 
G00 X-29.0551 Y10.2632 
G01 Z-0.2540 F254.00 
G01 X-29.0551 Y8.7868 
G01 X-29.0854 Y8.6342 
G01 X-29.1450 Y8.4904 
G01 X-29.2314 Y8.3610 
G01 X-29.3414 Y8.2510 
G01 X-29.4708 Y8.1646 
G01 X-29.6146 Y8.1050 
G01 X-29.7672 Y8.0747 
G01 X-29.9228 Y8.0747 
G01 X-30.0754 Y8.1050 
G01 X-30.2192 Y8.1646 
G01 X-30.3486 Y8.2510 
G01 X-30.4586 Y8.3610 
G01 X-30.5450 Y8.4904 
G01 X-30.6046 Y8.6342 
G01 X-30.6349 Y8.7868 
G01 X-30.6349 Y10.2632 
G01 X-30.6046 Y10.4158 
G01 X-30.5450 Y10.5596 
G01 X-30.4586 Y10.6890 
G01 X-30.3486 Y10.7990 
G01 X-30.2192 Y10.8854 
G01 X-30.0754 Y10.9450 
G01 X-29.9228 Y10.9753 
G01 X-29.7672 Y10.9753 
G01 X-29.6146 Y10.9450 
G01 X-29.4708 Y10.8854 
G01 X-29.3414 Y10.7990 
G01 X-29.2314 Y10.6890 
G01 X-29.1450 Y10.5596 
G01 X-29.0854 Y10.4158 
G01 X-29.0551 Y10.2632 
G00 Z0.5080 
G00 X-31.5951 Y10.2632 
G01 Z-0.2540 F254.00 
G01 X-31.5951 Y8.7868 
G01 X-31.6254 Y8.6342 
G01 X-31.6850 Y8.4904 
G01 X-31.7714 Y8.3610 
G01 X-31.8814 Y8.2510 
G01 X-32.0108 Y8.1646 
G01 X-32.1546 Y8.1050 
G01 X-32.3072 Y8.0747 
G01 X-32.4628 Y8.0747 
G01 X-32.6154 Y8.1050 
G01 X-32.7592 Y8.1646 
G01 X-32.8886 Y8.2510 
G01 X-32.9986 Y8.3610 
G01 X-33.0850 Y8.4904 
G01 X-33.1446 Y8.6342 
G01 X-33.1749 Y8.7868 
G01 X-33.1749 Y10.2632 
G01 X-33.1446 Y10.4158 
G01 X-33.0850 Y10.5596 
G01 X-32.9986 Y10.6890 
G01 X-32.8886 Y10.7990 
G01 X-32.7592 Y10.8854 
G01 X-32.6154 Y10.9450 
G01 X-32.4628 Y10.9753 
G01 X-32.3072 Y10.9753 
G01 X-32.1546 Y10.9450 
G01 X-32.0108 Y10.8854 
G01 X-31.8814 Y10.7990 
G01 X-31.7714 Y10.6890 
G01 X-31.6850 Y10.5596 
G01 X-31.6254 Y10.4158 
G01 X-31.5951 Y10.2632 
G00 Z0.5080 
G00 X-34.1351 Y10.2632 
G01 Z-0.2540 F254.00 
G01 X-34.1351 Y8.7868 
G01 X-34.1654 Y8.6342 
G01 X-34.2250 Y8.4904 
G01 X-34.3114 Y8.3610 
G01 X-34.4214 Y8.2510 
G01 X-34.5508 Y8.1646 
G01 X-34.6946 Y8.1050 
G01 X-34.8472 Y8.0747 
G01 X-35.0028 Y8.0747 
G01 X-35.1554 Y8.1050 
G01 X-35.2992 Y8.1646 
G01 X-35.4286 Y8.2510 
G01 X-35.5386 Y8.3610 
G01 X-35.6250 Y8.4904 
G01 X-35.6846 Y8.6342 
G01 X-35.7149 Y8.7868 
G01 X-35.7149 Y10.2632 
G01 X-35.6846 Y10.4158 
G01 X-35.6250 Y10.5596 
G01 X-35.5386 Y10.6890 
G01 X-35.4286 Y10.7990 
G01 X-35.2992 Y10.8854 
G01 X-35.1554 Y10.9450 
G01 X-35.0028 Y10.9753 
G01 X-34.8472 Y10.9753 
G01 X-34.6946 Y10.9450 
G01 X-34.5508 Y10.8854 
G01 X-34.4214 Y10.7990 
G01 X-34.3114 Y10.6890 
G01 X-34.2250 Y10.5596 
G01 X-34.1654 Y10.4158 
G01 X-34.1351 Y10.2632 
G00 Z0.5080 
G00 X-34.1351 Y17.8832 
G01 Z-0.2540 F254.00 
G01 X-34.1351 Y16.4068 
G01 X-34.1654 Y16.2542 
G01 X-34.2250 Y16.1104 
G01 X-34.3114 Y15.9810 
G01 X-34.4214 Y15.8710 
G01 X-34.5508 Y15.7846 
G01 X-34.6431 Y15.7464 
G01 X-34.6431 Y15.2029 
G01 X-34.6623 Y15.1312 
G01 X-34.6994 Y15.0669 
G01 X-36.5481 Y13.2182 
G01 X-36.5481 Y7.1018 
G01 X-34.8082 Y5.3619 
G01 X-32.9829 Y5.3619 
G01 X-32.9112 Y5.3427 
G01 X-32.8469 Y5.3056 
G01 X-32.2119 Y4.6706 
G01 X-32.1594 Y4.6181 
G01 X-32.1223 Y4.5538 
G01 X-32.1031 Y4.4821 
G01 X-32.1031 Y4.1502 
G01 X-31.9627 Y4.0921 
G01 X-31.8167 Y3.9945 
G01 X-31.6925 Y3.8703 
G01 X-31.5949 Y3.7243 
G01 X-31.5277 Y3.5621 
G01 X-31.4935 Y3.3898 
G01 X-31.4935 Y1.6902 
G01 X-31.5277 Y1.5179 
G01 X-31.5949 Y1.3557 
G01 X-31.6925 Y1.2097 
G01 X-31.8167 Y1.0855 
G01 X-31.9627 Y0.9879 
G01 X-32.1249 Y0.9207 
G01 X-32.2972 Y0.8865 
G01 X-32.4728 Y0.8865 
G01 X-32.6451 Y0.9207 
G01 X-32.8073 Y0.9879 
G01 X-32.9533 Y1.0855 
G01 X-33.0775 Y1.2097 
G01 X-33.1751 Y1.3557 
G01 X-33.2423 Y1.5179 
G01 X-33.2765 Y1.6902 
G01 X-33.2765 Y3.3898 
G01 X-33.2423 Y3.5621 
G01 X-33.1751 Y3.7243 
G01 X-33.0775 Y3.8703 
G01 X-32.9533 Y3.9945 
G01 X-32.8073 Y4.0921 
G01 X-32.6669 Y4.1502 
G01 X-32.6669 Y4.3282 
G01 X-33.1368 Y4.7981 
G01 X-34.9621 Y4.7981 
G01 X-35.0338 Y4.8173 
G01 X-35.0981 Y4.8544 
G01 X-35.1506 Y4.9069 
G01 X-37.0556 Y6.8119 
G01 X-37.0927 Y6.8762 
G01 X-37.1119 Y6.9479 
G01 X-37.1119 Y13.3721 
G01 X-37.0927 Y13.4438 
G01 X-37.0556 Y13.5081 
G01 X-37.0031 Y13.5606 
G01 X-35.2069 Y15.3568 
G01 X-35.2069 Y15.7464 
G01 X-35.2992 Y15.7846 
G01 X-35.4286 Y15.8710 
G01 X-35.5386 Y15.9810 
G01 X-35.6250 Y16.1104 
G01 X-35.6846 Y16.2542 
G01 X-35.7149 Y16.4068 
G01 X-35.7149 Y17.8832 
G01 X-35.6846 Y18.0358 
G01 X-35.6250 Y18.1796 
G01 X-35.5386 Y18.3090 
G01 X-35.4286 Y18.4190 
G01 X-35.2992 Y18.5054 
G01 X-35.1554 Y18.5650 
G01 X-35.0028 Y18.5953 
G01 X-34.8472 Y18.5953 
G01 X-34.6946 Y18.5650 
G01 X-34.5508 Y18.5054 
G01 X-34.4214 Y18.4190 
G01 X-34.3114 Y18.3090 
G01 X-34.2250 Y18.1796 
G01 X-34.1654 Y18.0358 
G01 X-34.1351 Y17.8832 
G00 Z0.5080 
G00 X-29.0551 Y17.8832 
G01 Z-0.2540 F254.00 
G01 X-29.0551 Y16.4068 
G01 X-29.0854 Y16.2542 
G01 X-29.1450 Y16.1104 
G01 X-29.2314 Y15.9810 
G01 X-29.3414 Y15.8710 
G01 X-29.4708 Y15.7846 
G01 X-29.6146 Y15.7250 
G01 X-29.7672 Y15.6947 
G01 X-29.9228 Y15.6947 
G01 X-30.0754 Y15.7250 
G01 X-30.2192 Y15.7846 
G01 X-30.3486 Y15.8710 
G01 X-30.4586 Y15.9810 
G01 X-30.5450 Y16.1104 
G01 X-30.6046 Y16.2542 
G01 X-30.6349 Y16.4068 
G01 X-30.6349 Y17.8832 
G01 X-30.6046 Y18.0358 
G01 X-30.5450 Y18.1796 
G01 X-30.4586 Y18.3090 
G01 X-30.3486 Y18.4190 
G01 X-30.2192 Y18.5054 
G01 X-30.0754 Y18.5650 
G01 X-29.9228 Y18.5953 
G01 X-29.7672 Y18.5953 
G01 X-29.6146 Y18.5650 
G01 X-29.4708 Y18.5054 
G01 X-29.3414 Y18.4190 
G01 X-29.2314 Y18.3090 
G01 X-29.1450 Y18.1796 
G01 X-29.0854 Y18.0358 
G01 X-29.0551 Y17.8832 
G00 Z0.5080 
G00 X-23.9751 Y17.8832 
G01 Z-0.2540 F254.00 
G01 X-23.9751 Y16.4068 
G01 X-24.0054 Y16.2542 
G01 X-24.0650 Y16.1104 
G01 X-24.1514 Y15.9810 
G01 X-24.2614 Y15.8710 
G01 X-24.3908 Y15.7846 
G01 X-24.5346 Y15.7250 
G01 X-24.6872 Y15.6947 
G01 X-24.8428 Y15.6947 
G01 X-24.9954 Y15.7250 
G01 X-25.1392 Y15.7846 
G01 X-25.2686 Y15.8710 
G01 X-25.3786 Y15.9810 
G01 X-25.4650 Y16.1104 
G01 X-25.5246 Y16.2542 
G01 X-25.5549 Y16.4068 
G01 X-25.5549 Y17.8832 
G01 X-25.5246 Y18.0358 
G01 X-25.4650 Y18.1796 
G01 X-25.3786 Y18.3090 
G01 X-25.2686 Y18.4190 
G01 X-25.1392 Y18.5054 
G01 X-24.9954 Y18.5650 
G01 X-24.8428 Y18.5953 
G01 X-24.6872 Y18.5953 
G01 X-24.5346 Y18.5650 
G01 X-24.3908 Y18.5054 
G01 X-24.2614 Y18.4190 
G01 X-24.1514 Y18.3090 
G01 X-24.0650 Y18.1796 
G01 X-24.0054 Y18.0358 
G01 X-23.9751 Y17.8832 
G00 Z0.5080 
G00 X-21.4351 Y17.8832 
G01 Z-0.2540 F254.00 
G01 X-21.4351 Y16.4068 
G01 X-21.4654 Y16.2542 
G01 X-21.5250 Y16.1104 
G01 X-21.6114 Y15.9810 
G01 X-21.7214 Y15.8710 
G01 X-21.8508 Y15.7846 
G01 X-21.9946 Y15.7250 
G01 X-22.1472 Y15.6947 
G01 X-22.3028 Y15.6947 
G01 X-22.4554 Y15.7250 
G01 X-22.5992 Y15.7846 
G01 X-22.7286 Y15.8710 
G01 X-22.8386 Y15.9810 
G01 X-22.9250 Y16.1104 
G01 X-22.9846 Y16.2542 
G01 X-23.0149 Y16.4068 
G01 X-23.0149 Y17.8832 
G01 X-22.9846 Y18.0358 
G01 X-22.9250 Y18.1796 
G01 X-22.8386 Y18.3090 
G01 X-22.7286 Y18.4190 
G01 X-22.5992 Y18.5054 
G01 X-22.4554 Y18.5650 
G01 X-22.3028 Y18.5953 
G01 X-22.1472 Y18.5953 
G01 X-21.9946 Y18.5650 
G01 X-21.8508 Y18.5054 
G01 X-21.7214 Y18.4190 
G01 X-21.6114 Y18.3090 
G01 X-21.5250 Y18.1796 
G01 X-21.4654 Y18.0358 
G01 X-21.4351 Y17.8832 
G00 Z0.5080 
G00 X-18.8951 Y17.8832 
G01 Z-0.2540 F254.00 
G01 X-18.8951 Y16.4068 
G01 X-18.9254 Y16.2542 
G01 X-18.9850 Y16.1104 
G01 X-19.0714 Y15.9810 
G01 X-19.1814 Y15.8710 
G01 X-19.3108 Y15.7846 
G01 X-19.4546 Y15.7250 
G01 X-19.6072 Y15.6947 
G01 X-19.7628 Y15.6947 
G01 X-19.9154 Y15.7250 
G01 X-20.0592 Y15.7846 
G01 X-20.1886 Y15.8710 
G01 X-20.2986 Y15.9810 
G01 X-20.3850 Y16.1104 
G01 X-20.4446 Y16.2542 
G01 X-20.4749 Y16.4068 
G01 X-20.4749 Y17.8832 
G01 X-20.4446 Y18.0358 
G01 X-20.3850 Y18.1796 
G01 X-20.2986 Y18.3090 
G01 X-20.1886 Y18.4190 
G01 X-20.0592 Y18.5054 
G01 X-19.9154 Y18.5650 
G01 X-19.7628 Y18.5953 
G01 X-19.6072 Y18.5953 
G01 X-19.4546 Y18.5650 
G01 X-19.3108 Y18.5054 
G01 X-19.1814 Y18.4190 
G01 X-19.0714 Y18.3090 
G01 X-18.9850 Y18.1796 
G01 X-18.9254 Y18.0358 
G01 X-18.8951 Y17.8832 
G00 Z0.5080 
G00 X-16.3551 Y17.8832 
G01 Z-0.2540 F254.00 
G01 X-16.3551 Y16.4068 
G01 X-16.3854 Y16.2542 
G01 X-16.4450 Y16.1104 
G01 X-16.5314 Y15.9810 
G01 X-16.6414 Y15.8710 
G01 X-16.7708 Y15.7846 
G01 X-16.9146 Y15.7250 
G01 X-17.0672 Y15.6947 
G01 X-17.2228 Y15.6947 
G01 X-17.3754 Y15.7250 
G01 X-17.5192 Y15.7846 
G01 X-17.6486 Y15.8710 
G01 X-17.7586 Y15.9810 
G01 X-17.8450 Y16.1104 
G01 X-17.9046 Y16.2542 
G01 X-17.9349 Y16.4068 
G01 X-17.9349 Y17.8832 
G01 X-17.9046 Y18.0358 
G01 X-17.8450 Y18.1796 
G01 X-17.7586 Y18.3090 
G01 X-17.6486 Y18.4190 
G01 X-17.5192 Y18.5054 
G01 X-17.3866 Y18.5603 
G01 X-17.3706 Y18.5881 
G01 X-16.7356 Y19.2231 
G01 X-16.6831 Y19.2756 
G01 X-16.6188 Y19.3127 
G01 X-16.5471 Y19.3319 
G01 X-10.7579 Y19.3319 
G01 X-10.6862 Y19.3127 
G01 X-10.6219 Y19.2756 
G01 X-9.3519 Y18.0056 
G01 X-9.2994 Y17.9531 
G01 X-9.2623 Y17.8888 
G01 X-9.2431 Y17.8171 
G01 X-9.2431 Y4.1502 
G01 X-9.1027 Y4.0921 
G01 X-8.9567 Y3.9945 
G01 X-8.8325 Y3.8703 
G01 X-8.7349 Y3.7243 
G01 X-8.6677 Y3.5621 
G01 X-8.6335 Y3.3898 
G01 X-8.6335 Y1.6902 
G01 X-8.6677 Y1.5179 
G01 X-8.7349 Y1.3557 
G01 X-8.8325 Y1.2097 
G01 X-8.9567 Y1.0855 
G01 X-9.1027 Y0.9879 
G01 X-9.2649 Y0.9207 
G01 X-9.4372 Y0.8865 
G01 X-9.6128 Y0.8865 
G01 X-9.7851 Y0.9207 
G01 X-9.9473 Y0.9879 
G01 X-10.0933 Y1.0855 
G01 X-10.2175 Y1.2097 
G01 X-10.3151 Y1.3557 
G01 X-10.3823 Y1.5179 
G01 X-10.4165 Y1.6902 
G01 X-10.4165 Y3.3898 
G01 X-10.3823 Y3.5621 
G01 X-10.3151 Y3.7243 
G01 X-10.2175 Y3.8703 
G01 X-10.0933 Y3.9945 
G01 X-9.9473 Y4.0921 
G01 X-9.8069 Y4.1502 
G01 X-9.8069 Y17.6632 
G01 X-10.9118 Y18.7681 
G01 X-16.3932 Y18.7681 
G01 X-16.7019 Y18.4594 
G01 X-16.6414 Y18.4190 
G01 X-16.5314 Y18.3090 
G01 X-16.4450 Y18.1796 
G01 X-16.3854 Y18.0358 
G01 X-16.3551 Y17.8832 
G00 Z0.5080 
G00 X-34.6685 Y22.4398 
G01 Z-0.2540 F254.00 
G01 X-34.6685 Y20.7402 
G01 X-34.7027 Y20.5679 
G01 X-34.7699 Y20.4057 
G01 X-34.8675 Y20.2597 
G01 X-34.9917 Y20.1355 
G01 X-35.1377 Y20.0379 
G01 X-35.2999 Y19.9707 
G01 X-35.3190 Y19.9669 
G01 X-27.9029 Y19.9669 
G01 X-27.8312 Y19.9477 
G01 X-27.7669 Y19.9106 
G01 X-27.7144 Y19.8581 
G01 X-27.0794 Y19.2231 
G01 X-27.0423 Y19.1588 
G01 X-27.0231 Y19.0871 
G01 X-27.0231 Y18.5436 
G01 X-26.9308 Y18.5054 
G01 X-26.8014 Y18.4190 
G01 X-26.6914 Y18.3090 
G01 X-26.6050 Y18.1796 
G01 X-26.5454 Y18.0358 
G01 X-26.5151 Y17.8832 
G01 X-26.5151 Y16.4068 
G01 X-26.5454 Y16.2542 
G01 X-26.6050 Y16.1104 
G01 X-26.6914 Y15.9810 
G01 X-26.8014 Y15.8710 
G01 X-26.9308 Y15.7846 
G01 X-27.0746 Y15.7250 
G01 X-27.2272 Y15.6947 
G01 X-27.3828 Y15.6947 
G01 X-27.5354 Y15.7250 
G01 X-27.6792 Y15.7846 
G01 X-27.8086 Y15.8710 
G01 X-27.9186 Y15.9810 
G01 X-28.0050 Y16.1104 
G01 X-28.0646 Y16.2542 
G01 X-28.0949 Y16.4068 
G01 X-28.0949 Y17.8832 
G01 X-28.0646 Y18.0358 
G01 X-28.0050 Y18.1796 
G01 X-27.9186 Y18.3090 
G01 X-27.8086 Y18.4190 
G01 X-27.6792 Y18.5054 
G01 X-27.5869 Y18.5436 
G01 X-27.5869 Y18.9332 
G01 X-28.0568 Y19.4031 
G01 X-37.5021 Y19.4031 
G01 X-37.5738 Y19.4223 
G01 X-37.6381 Y19.4594 
G01 X-38.1152 Y19.9365 
G01 X-38.1878 Y19.9365 
G01 X-38.3601 Y19.9707 
G01 X-38.5223 Y20.0379 
G01 X-38.6683 Y20.1355 
G01 X-38.7925 Y20.2597 
G01 X-38.8901 Y20.4057 
G01 X-38.9573 Y20.5679 
G01 X-38.9915 Y20.7402 
G01 X-38.9915 Y22.4398 
G01 X-38.9573 Y22.6121 
G01 X-38.8901 Y22.7743 
G01 X-38.7925 Y22.9203 
G01 X-38.6683 Y23.0445 
G01 X-38.5223 Y23.1421 
G01 X-38.3601 Y23.2093 
G01 X-38.1878 Y23.2435 
G01 X-38.0122 Y23.2435 
G01 X-37.8399 Y23.2093 
G01 X-37.6777 Y23.1421 
G01 X-37.5317 Y23.0445 
G01 X-37.4075 Y22.9203 
G01 X-37.3099 Y22.7743 
G01 X-37.2427 Y22.6121 
G01 X-37.2085 Y22.4398 
G01 X-37.2085 Y20.7402 
G01 X-37.2427 Y20.5679 
G01 X-37.3099 Y20.4057 
G01 X-37.4075 Y20.2597 
G01 X-37.5242 Y20.1429 
G01 X-37.3482 Y19.9669 
G01 X-35.8010 Y19.9669 
G01 X-35.8201 Y19.9707 
G01 X-35.9823 Y20.0379 
G01 X-36.1283 Y20.1355 
G01 X-36.2525 Y20.2597 
G01 X-36.3501 Y20.4057 
G01 X-36.4173 Y20.5679 
G01 X-36.4515 Y20.7402 
G01 X-36.4515 Y22.4398 
G01 X-36.4173 Y22.6121 
G01 X-36.3501 Y22.7743 
G01 X-36.2525 Y22.9203 
G01 X-36.1283 Y23.0445 
G01 X-35.9823 Y23.1421 
G01 X-35.8201 Y23.2093 
G01 X-35.6478 Y23.2435 
G01 X-35.4722 Y23.2435 
G01 X-35.2999 Y23.2093 
G01 X-35.1377 Y23.1421 
G01 X-34.9917 Y23.0445 
G01 X-34.8675 Y22.9203 
G01 X-34.7699 Y22.7743 
G01 X-34.7027 Y22.6121 
G01 X-34.6685 Y22.4398 
G00 Z0.5080 
G00 X-42.2885 Y22.4398 
G01 Z-0.2540 F254.00 
G01 X-42.2885 Y20.7402 
G01 X-42.3227 Y20.5679 
G01 X-42.3899 Y20.4057 
G01 X-42.4875 Y20.2597 
G01 X-42.6117 Y20.1355 
G01 X-42.7577 Y20.0379 
G01 X-42.9199 Y19.9707 
G01 X-43.0922 Y19.9365 
G01 X-43.2678 Y19.9365 
G01 X-43.4401 Y19.9707 
G01 X-43.6023 Y20.0379 
G01 X-43.7483 Y20.1355 
G01 X-43.8725 Y20.2597 
G01 X-43.9701 Y20.4057 
G01 X-44.0373 Y20.5679 
G01 X-44.0715 Y20.7402 
G01 X-44.0715 Y22.4398 
G01 X-44.0373 Y22.6121 
G01 X-43.9701 Y22.7743 
G01 X-43.8725 Y22.9203 
G01 X-43.7483 Y23.0445 
G01 X-43.6023 Y23.1421 
G01 X-43.4401 Y23.2093 
G01 X-43.2678 Y23.2435 
G01 X-43.0922 Y23.2435 
G01 X-42.9199 Y23.2093 
G01 X-42.7577 Y23.1421 
G01 X-42.6117 Y23.0445 
G01 X-42.4875 Y22.9203 
G01 X-42.3899 Y22.7743 
G01 X-42.3227 Y22.6121 
G01 X-42.2885 Y22.4398 
G00 Z0.5080 
G00 X-43.4365 Y1.6902 
G01 Z-0.2540 F254.00 
G01 X-43.4365 Y3.3898 
G01 X-43.4023 Y3.5621 
G01 X-43.3351 Y3.7243 
G01 X-43.2375 Y3.8703 
G01 X-43.1133 Y3.9945 
G01 X-42.9673 Y4.0921 
G01 X-42.8051 Y4.1593 
G01 X-42.6328 Y4.1935 
G01 X-42.4572 Y4.1935 
G01 X-42.2849 Y4.1593 
G01 X-42.1227 Y4.0921 
G01 X-41.9767 Y3.9945 
G01 X-41.8525 Y3.8703 
G01 X-41.7549 Y3.7243 
G01 X-41.6877 Y3.5621 
G01 X-41.6535 Y3.3898 
G01 X-41.6535 Y1.6902 
G01 X-41.6877 Y1.5179 
G01 X-41.7549 Y1.3557 
G01 X-41.8525 Y1.2097 
G01 X-41.9767 Y1.0855 
G01 X-42.1227 Y0.9879 
G01 X-42.2849 Y0.9207 
G01 X-42.4572 Y0.8865 
G01 X-42.6328 Y0.8865 
G01 X-42.8051 Y0.9207 
G01 X-42.9673 Y0.9879 
G01 X-43.1133 Y1.0855 
G01 X-43.2375 Y1.2097 
G01 X-43.3351 Y1.3557 
G01 X-43.4023 Y1.5179 
G01 X-43.4365 Y1.6902 
G00 Z0.5080 
G00 X-40.8965 Y1.6902 
G01 Z-0.2540 F254.00 
G01 X-40.8965 Y3.3898 
G01 X-40.8623 Y3.5621 
G01 X-40.7951 Y3.7243 
G01 X-40.6975 Y3.8703 
G01 X-40.5733 Y3.9945 
G01 X-40.4273 Y4.0921 
G01 X-40.2651 Y4.1593 
G01 X-40.0928 Y4.1935 
G01 X-39.9172 Y4.1935 
G01 X-39.7449 Y4.1593 
G01 X-39.5827 Y4.0921 
G01 X-39.4367 Y3.9945 
G01 X-39.3125 Y3.8703 
G01 X-39.2149 Y3.7243 
G01 X-39.1477 Y3.5621 
G01 X-39.1135 Y3.3898 
G01 X-39.1135 Y1.6902 
G01 X-39.1477 Y1.5179 
G01 X-39.2149 Y1.3557 
G01 X-39.3125 Y1.2097 
G01 X-39.4367 Y1.0855 
G01 X-39.5827 Y0.9879 
G01 X-39.7449 Y0.9207 
G01 X-39.9172 Y0.8865 
G01 X-40.0928 Y0.8865 
G01 X-40.2651 Y0.9207 
G01 X-40.4273 Y0.9879 
G01 X-40.5733 Y1.0855 
G01 X-40.6975 Y1.2097 
G01 X-40.7951 Y1.3557 
G01 X-40.8623 Y1.5179 
G01 X-40.8965 Y1.6902 
G00 Z0.5080 
G00 X-38.3565 Y1.6902 
G01 Z-0.2540 F254.00 
G01 X-38.3565 Y3.3898 
G01 X-38.3223 Y3.5621 
G01 X-38.2551 Y3.7243 
G01 X-38.1575 Y3.8703 
G01 X-38.0333 Y3.9945 
G01 X-37.8873 Y4.0921 
G01 X-37.7251 Y4.1593 
G01 X-37.5528 Y4.1935 
G01 X-37.3772 Y4.1935 
G01 X-37.2049 Y4.1593 
G01 X-37.0427 Y4.0921 
G01 X-36.8967 Y3.9945 
G01 X-36.7725 Y3.8703 
G01 X-36.6749 Y3.7243 
G01 X-36.6077 Y3.5621 
G01 X-36.5735 Y3.3898 
G01 X-36.5735 Y1.6902 
G01 X-36.6077 Y1.5179 
G01 X-36.6749 Y1.3557 
G01 X-36.7725 Y1.2097 
G01 X-36.8967 Y1.0855 
G01 X-37.0427 Y0.9879 
G01 X-37.2049 Y0.9207 
G01 X-37.3772 Y0.8865 
G01 X-37.5528 Y0.8865 
G01 X-37.7251 Y0.9207 
G01 X-37.8873 Y0.9879 
G01 X-38.0333 Y1.0855 
G01 X-38.1575 Y1.2097 
G01 X-38.2551 Y1.3557 
G01 X-38.3223 Y1.5179 
G01 X-38.3565 Y1.6902 
G00 Z0.5080 
G00 X-35.8165 Y1.6902 
G01 Z-0.2540 F254.00 
G01 X-35.8165 Y3.3898 
G01 X-35.7823 Y3.5621 
G01 X-35.7151 Y3.7243 
G01 X-35.6175 Y3.8703 
G01 X-35.4933 Y3.9945 
G01 X-35.3473 Y4.0921 
G01 X-35.1851 Y4.1593 
G01 X-35.0128 Y4.1935 
G01 X-34.8372 Y4.1935 
G01 X-34.6649 Y4.1593 
G01 X-34.5027 Y4.0921 
G01 X-34.3567 Y3.9945 
G01 X-34.2325 Y3.8703 
G01 X-34.1349 Y3.7243 
G01 X-34.0677 Y3.5621 
G01 X-34.0335 Y3.3898 
G01 X-34.0335 Y1.6902 
G01 X-34.0677 Y1.5179 
G01 X-34.1349 Y1.3557 
G01 X-34.2325 Y1.2097 
G01 X-34.3567 Y1.0855 
G01 X-34.5027 Y0.9879 
G01 X-34.6649 Y0.9207 
G01 X-34.8372 Y0.8865 
G01 X-35.0128 Y0.8865 
G01 X-35.1851 Y0.9207 
G01 X-35.3473 Y0.9879 
G01 X-35.4933 Y1.0855 
G01 X-35.6175 Y1.2097 
G01 X-35.7151 Y1.3557 
G01 X-35.7823 Y1.5179 
G01 X-35.8165 Y1.6902 
G00 Z0.5080 
G00 X-30.7365 Y1.6902 
G01 Z-0.2540 F254.00 
G01 X-30.7365 Y3.3898 
G01 X-30.7023 Y3.5621 
G01 X-30.6351 Y3.7243 
G01 X-30.5375 Y3.8703 
G01 X-30.4133 Y3.9945 
G01 X-30.2673 Y4.0921 
G01 X-30.1051 Y4.1593 
G01 X-29.9328 Y4.1935 
G01 X-29.7572 Y4.1935 
G01 X-29.5849 Y4.1593 
G01 X-29.4227 Y4.0921 
G01 X-29.2767 Y3.9945 
G01 X-29.1525 Y3.8703 
G01 X-29.0549 Y3.7243 
G01 X-28.9877 Y3.5621 
G01 X-28.9535 Y3.3898 
G01 X-28.9535 Y1.6902 
G01 X-28.9877 Y1.5179 
G01 X-29.0549 Y1.3557 
G01 X-29.1525 Y1.2097 
G01 X-29.2767 Y1.0855 
G01 X-29.4227 Y0.9879 
G01 X-29.5849 Y0.9207 
G01 X-29.7572 Y0.8865 
G01 X-29.9328 Y0.8865 
G01 X-30.1051 Y0.9207 
G01 X-30.2673 Y0.9879 
G01 X-30.4133 Y1.0855 
G01 X-30.5375 Y1.2097 
G01 X-30.6351 Y1.3557 
G01 X-30.7023 Y1.5179 
G01 X-30.7365 Y1.6902 
G00 Z0.5080 
G00 X-28.1965 Y1.6902 
G01 Z-0.2540 F254.00 
G01 X-28.1965 Y3.3898 
G01 X-28.1623 Y3.5621 
G01 X-28.0951 Y3.7243 
G01 X-27.9975 Y3.8703 
G01 X-27.8733 Y3.9945 
G01 X-27.7273 Y4.0921 
G01 X-27.5651 Y4.1593 
G01 X-27.3928 Y4.1935 
G01 X-27.2172 Y4.1935 
G01 X-27.0449 Y4.1593 
G01 X-26.8827 Y4.0921 
G01 X-26.7367 Y3.9945 
G01 X-26.6125 Y3.8703 
G01 X-26.5149 Y3.7243 
G01 X-26.4477 Y3.5621 
G01 X-26.4135 Y3.3898 
G01 X-26.4135 Y1.6902 
G01 X-26.4477 Y1.5179 
G01 X-26.5149 Y1.3557 
G01 X-26.6125 Y1.2097 
G01 X-26.7367 Y1.0855 
G01 X-26.8827 Y0.9879 
G01 X-27.0449 Y0.9207 
G01 X-27.2172 Y0.8865 
G01 X-27.3928 Y0.8865 
G01 X-27.5651 Y0.9207 
G01 X-27.7273 Y0.9879 
G01 X-27.8733 Y1.0855 
G01 X-27.9975 Y1.2097 
G01 X-28.0951 Y1.3557 
G01 X-28.1623 Y1.5179 
G01 X-28.1965 Y1.6902 
G00 Z0.5080 
G00 X-25.6565 Y1.6902 
G01 Z-0.2540 F254.00 
G01 X-25.6565 Y3.3898 
G01 X-25.6223 Y3.5621 
G01 X-25.5551 Y3.7243 
G01 X-25.4575 Y3.8703 
G01 X-25.3333 Y3.9945 
G01 X-25.1873 Y4.0921 
G01 X-25.0251 Y4.1593 
G01 X-24.8528 Y4.1935 
G01 X-24.6772 Y4.1935 
G01 X-24.5049 Y4.1593 
G01 X-24.3427 Y4.0921 
G01 X-24.1967 Y3.9945 
G01 X-24.0725 Y3.8703 
G01 X-23.9749 Y3.7243 
G01 X-23.9077 Y3.5621 
G01 X-23.8735 Y3.3898 
G01 X-23.8735 Y1.6902 
G01 X-23.9077 Y1.5179 
G01 X-23.9749 Y1.3557 
G01 X-24.0725 Y1.2097 
G01 X-24.1967 Y1.0855 
G01 X-24.3427 Y0.9879 
G01 X-24.5049 Y0.9207 
G01 X-24.6772 Y0.8865 
G01 X-24.8528 Y0.8865 
G01 X-25.0251 Y0.9207 
G01 X-25.1873 Y0.9879 
G01 X-25.3333 Y1.0855 
G01 X-25.4575 Y1.2097 
G01 X-25.5551 Y1.3557 
G01 X-25.6223 Y1.5179 
G01 X-25.6565 Y1.6902 
G00 Z0.5080 
G00 X-23.1165 Y1.6902 
G01 Z-0.2540 F254.00 
G01 X-23.1165 Y3.3898 
G01 X-23.0823 Y3.5621 
G01 X-23.0151 Y3.7243 
G01 X-22.9175 Y3.8703 
G01 X-22.7933 Y3.9945 
G01 X-22.6473 Y4.0921 
G01 X-22.4851 Y4.1593 
G01 X-22.3128 Y4.1935 
G01 X-22.1372 Y4.1935 
G01 X-21.9649 Y4.1593 
G01 X-21.8027 Y4.0921 
G01 X-21.6567 Y3.9945 
G01 X-21.5325 Y3.8703 
G01 X-21.4349 Y3.7243 
G01 X-21.3677 Y3.5621 
G01 X-21.3335 Y3.3898 
G01 X-21.3335 Y1.6902 
G01 X-21.3677 Y1.5179 
G01 X-21.4349 Y1.3557 
G01 X-21.5325 Y1.2097 
G01 X-21.6567 Y1.0855 
G01 X-21.8027 Y0.9879 
G01 X-21.9649 Y0.9207 
G01 X-22.1372 Y0.8865 
G01 X-22.3128 Y0.8865 
G01 X-22.4851 Y0.9207 
G01 X-22.6473 Y0.9879 
G01 X-22.7933 Y1.0855 
G01 X-22.9175 Y1.2097 
G01 X-23.0151 Y1.3557 
G01 X-23.0823 Y1.5179 
G01 X-23.1165 Y1.6902 
G00 Z0.5080 
G00 X-20.5765 Y1.6902 
G01 Z-0.2540 F254.00 
G01 X-20.5765 Y3.3898 
G01 X-20.5423 Y3.5621 
G01 X-20.4751 Y3.7243 
G01 X-20.3775 Y3.8703 
G01 X-20.2533 Y3.9945 
G01 X-20.1073 Y4.0921 
G01 X-19.9451 Y4.1593 
G01 X-19.7728 Y4.1935 
G01 X-19.5972 Y4.1935 
G01 X-19.4249 Y4.1593 
G01 X-19.2627 Y4.0921 
G01 X-19.1167 Y3.9945 
G01 X-18.9925 Y3.8703 
G01 X-18.8949 Y3.7243 
G01 X-18.8277 Y3.5621 
G01 X-18.7935 Y3.3898 
G01 X-18.7935 Y1.6902 
G01 X-18.8277 Y1.5179 
G01 X-18.8949 Y1.3557 
G01 X-18.9925 Y1.2097 
G01 X-19.1167 Y1.0855 
G01 X-19.2627 Y0.9879 
G01 X-19.4249 Y0.9207 
G01 X-19.5972 Y0.8865 
G01 X-19.7728 Y0.8865 
G01 X-19.9451 Y0.9207 
G01 X-20.1073 Y0.9879 
G01 X-20.2533 Y1.0855 
G01 X-20.3775 Y1.2097 
G01 X-20.4751 Y1.3557 
G01 X-20.5423 Y1.5179 
G01 X-20.5765 Y1.6902 
G00 Z0.5080 
G00 X-18.0365 Y1.6902 
G01 Z-0.2540 F254.00 
G01 X-18.0365 Y3.3898 
G01 X-18.0023 Y3.5621 
G01 X-17.9351 Y3.7243 
G01 X-17.8375 Y3.8703 
G01 X-17.7133 Y3.9945 
G01 X-17.5673 Y4.0921 
G01 X-17.4051 Y4.1593 
G01 X-17.2328 Y4.1935 
G01 X-17.0572 Y4.1935 
G01 X-16.8849 Y4.1593 
G01 X-16.7227 Y4.0921 
G01 X-16.5767 Y3.9945 
G01 X-16.4525 Y3.8703 
G01 X-16.3549 Y3.7243 
G01 X-16.2877 Y3.5621 
G01 X-16.2535 Y3.3898 
G01 X-16.2535 Y1.6902 
G01 X-16.2877 Y1.5179 
G01 X-16.3549 Y1.3557 
G01 X-16.4525 Y1.2097 
G01 X-16.5767 Y1.0855 
G01 X-16.7227 Y0.9879 
G01 X-16.8849 Y0.9207 
G01 X-17.0572 Y0.8865 
G01 X-17.2328 Y0.8865 
G01 X-17.4051 Y0.9207 
G01 X-17.5673 Y0.9879 
G01 X-17.7133 Y1.0855 
G01 X-17.8375 Y1.2097 
G01 X-17.9351 Y1.3557 
G01 X-18.0023 Y1.5179 
G01 X-18.0365 Y1.6902 
G00 Z0.5080 
G00 X-15.4965 Y1.6902 
G01 Z-0.2540 F254.00 
G01 X-15.4965 Y3.3898 
G01 X-15.4623 Y3.5621 
G01 X-15.3951 Y3.7243 
G01 X-15.2975 Y3.8703 
G01 X-15.1733 Y3.9945 
G01 X-15.0273 Y4.0921 
G01 X-14.8651 Y4.1593 
G01 X-14.6928 Y4.1935 
G01 X-14.5172 Y4.1935 
G01 X-14.3449 Y4.1593 
G01 X-14.1827 Y4.0921 
G01 X-14.0367 Y3.9945 
G01 X-13.9125 Y3.8703 
G01 X-13.8149 Y3.7243 
G01 X-13.7477 Y3.5621 
G01 X-13.7135 Y3.3898 
G01 X-13.7135 Y1.6902 
G01 X-13.7477 Y1.5179 
G01 X-13.8149 Y1.3557 
G01 X-13.9125 Y1.2097 
G01 X-14.0367 Y1.0855 
G01 X-14.1827 Y0.9879 
G01 X-14.3449 Y0.9207 
G01 X-14.5172 Y0.8865 
G01 X-14.6928 Y0.8865 
G01 X-14.8651 Y0.9207 
G01 X-15.0273 Y0.9879 
G01 X-15.1733 Y1.0855 
G01 X-15.2975 Y1.2097 
G01 X-15.3951 Y1.3557 
G01 X-15.4623 Y1.5179 
G01 X-15.4965 Y1.6902 
G00 Z0.5080 
G00 X-12.9565 Y1.6902 
G01 Z-0.2540 F254.00 
G01 X-12.9565 Y3.3898 
G01 X-12.9223 Y3.5621 
G01 X-12.8551 Y3.7243 
G01 X-12.7575 Y3.8703 
G01 X-12.6333 Y3.9945 
G01 X-12.4873 Y4.0921 
G01 X-12.3469 Y4.1502 
G01 X-12.3469 Y4.9632 
G01 X-12.9256 Y5.5419 
G01 X-12.9627 Y5.6062 
G01 X-12.9819 Y5.6779 
G01 X-12.9819 Y12.5832 
G01 X-14.8306 Y14.4319 
G01 X-14.8677 Y14.4962 
G01 X-14.8869 Y14.5679 
G01 X-14.8869 Y15.7464 
G01 X-14.9792 Y15.7846 
G01 X-15.1086 Y15.8710 
G01 X-15.2186 Y15.9810 
G01 X-15.3050 Y16.1104 
G01 X-15.3646 Y16.2542 
G01 X-15.3949 Y16.4068 
G01 X-15.3949 Y17.8832 
G01 X-15.3646 Y18.0358 
G01 X-15.3050 Y18.1796 
G01 X-15.2186 Y18.3090 
G01 X-15.1086 Y18.4190 
G01 X-14.9792 Y18.5054 
G01 X-14.8354 Y18.5650 
G01 X-14.6828 Y18.5953 
G01 X-14.5272 Y18.5953 
G01 X-14.3746 Y18.5650 
G01 X-14.2308 Y18.5054 
G01 X-14.1014 Y18.4190 
G01 X-13.9914 Y18.3090 
G01 X-13.9050 Y18.1796 
G01 X-13.8454 Y18.0358 
G01 X-13.8151 Y17.8832 
G01 X-13.8151 Y16.4068 
G01 X-13.8454 Y16.2542 
G01 X-13.9050 Y16.1104 
G01 X-13.9914 Y15.9810 
G01 X-14.1014 Y15.8710 
G01 X-14.2308 Y15.7846 
G01 X-14.3231 Y15.7464 
G01 X-14.3231 Y14.7218 
G01 X-12.5269 Y12.9256 
G01 X-12.4744 Y12.8731 
G01 X-12.4373 Y12.8088 
G01 X-12.4181 Y12.7371 
G01 X-12.4181 Y5.8318 
G01 X-11.8919 Y5.3056 
G01 X-11.8394 Y5.2531 
G01 X-11.8023 Y5.1888 
G01 X-11.7831 Y5.1171 
G01 X-11.7831 Y4.1502 
G01 X-11.6427 Y4.0921 
G01 X-11.4967 Y3.9945 
G01 X-11.3725 Y3.8703 
G01 X-11.2749 Y3.7243 
G01 X-11.2077 Y3.5621 
G01 X-11.1735 Y3.3898 
G01 X-11.1735 Y1.6902 
G01 X-11.2077 Y1.5179 
G01 X-11.2749 Y1.3557 
G01 X-11.3725 Y1.2097 
G01 X-11.4967 Y1.0855 
G01 X-11.6427 Y0.9879 
G01 X-11.8049 Y0.9207 
G01 X-11.9772 Y0.8865 
G01 X-12.1528 Y0.8865 
G01 X-12.3251 Y0.9207 
G01 X-12.4873 Y0.9879 
G01 X-12.6333 Y1.0855 
G01 X-12.7575 Y1.2097 
G01 X-12.8551 Y1.3557 
G01 X-12.9223 Y1.5179 
G01 X-12.9565 Y1.6902 
G00 Z0.5080 
G00 X-7.8765 Y1.6902 
G01 Z-0.2540 F254.00 
G01 X-7.8765 Y3.3898 
G01 X-7.8423 Y3.5621 
G01 X-7.7751 Y3.7243 
G01 X-7.6775 Y3.8703 
G01 X-7.5533 Y3.9945 
G01 X-7.4073 Y4.0921 
G01 X-7.2451 Y4.1593 
G01 X-7.0728 Y4.1935 
G01 X-6.8972 Y4.1935 
G01 X-6.7249 Y4.1593 
G01 X-6.5627 Y4.0921 
G01 X-6.4167 Y3.9945 
G01 X-6.2925 Y3.8703 
G01 X-6.1949 Y3.7243 
G01 X-6.1277 Y3.5621 
G01 X-6.0935 Y3.3898 
G01 X-6.0935 Y1.6902 
G01 X-6.1277 Y1.5179 
G01 X-6.1949 Y1.3557 
G01 X-6.2925 Y1.2097 
G01 X-6.4167 Y1.0855 
G01 X-6.5627 Y0.9879 
G01 X-6.7249 Y0.9207 
G01 X-6.8972 Y0.8865 
G01 X-7.0728 Y0.8865 
G01 X-7.2451 Y0.9207 
G01 X-7.4073 Y0.9879 
G01 X-7.5533 Y1.0855 
G01 X-7.6775 Y1.2097 
G01 X-7.7751 Y1.3557 
G01 X-7.8423 Y1.5179 
G01 X-7.8765 Y1.6902 
G00 Z0.5080 
G00 X-5.3365 Y1.6902 
G01 Z-0.2540 F254.00 
G01 X-5.3365 Y3.3898 
G01 X-5.3023 Y3.5621 
G01 X-5.2351 Y3.7243 
G01 X-5.1375 Y3.8703 
G01 X-5.0133 Y3.9945 
G01 X-4.8673 Y4.0921 
G01 X-4.7051 Y4.1593 
G01 X-4.5328 Y4.1935 
G01 X-4.3572 Y4.1935 
G01 X-4.1849 Y4.1593 
G01 X-4.0227 Y4.0921 
G01 X-3.8767 Y3.9945 
G01 X-3.7525 Y3.8703 
G01 X-3.6549 Y3.7243 
G01 X-3.5877 Y3.5621 
G01 X-3.5535 Y3.3898 
G01 X-3.5535 Y1.6902 
G01 X-3.5877 Y1.5179 
G01 X-3.6549 Y1.3557 
G01 X-3.7525 Y1.2097 
G01 X-3.8767 Y1.0855 
G01 X-4.0227 Y0.9879 
G01 X-4.1849 Y0.9207 
G01 X-4.3572 Y0.8865 
G01 X-4.5328 Y0.8865 
G01 X-4.7051 Y0.9207 
G01 X-4.8673 Y0.9879 
G01 X-5.0133 Y1.0855 
G01 X-5.1375 Y1.2097 
G01 X-5.2351 Y1.3557 
G01 X-5.3023 Y1.5179 
G01 X-5.3365 Y1.6902 
G00 Z0.5080 
G00 X-2.7965 Y1.6902 
G01 Z-0.2540 F254.00 
G01 X-2.7965 Y3.3898 
G01 X-2.7623 Y3.5621 
G01 X-2.6951 Y3.7243 
G01 X-2.5975 Y3.8703 
G01 X-2.4733 Y3.9945 
G01 X-2.3273 Y4.0921 
G01 X-2.1651 Y4.1593 
G01 X-1.9928 Y4.1935 
G01 X-1.8172 Y4.1935 
G01 X-1.6449 Y4.1593 
G01 X-1.4827 Y4.0921 
G01 X-1.3367 Y3.9945 
G01 X-1.2125 Y3.8703 
G01 X-1.1149 Y3.7243 
G01 X-1.0477 Y3.5621 
G01 X-1.0135 Y3.3898 
G01 X-1.0135 Y1.6902 
G01 X-1.0477 Y1.5179 
G01 X-1.1149 Y1.3557 
G01 X-1.2125 Y1.2097 
G01 X-1.3367 Y1.0855 
G01 X-1.4827 Y0.9879 
G01 X-1.6449 Y0.9207 
G01 X-1.8172 Y0.8865 
G01 X-1.9928 Y0.8865 
G01 X-2.1651 Y0.9207 
G01 X-2.3273 Y0.9879 
G01 X-2.4733 Y1.0855 
G01 X-2.5975 Y1.2097 
G01 X-2.6951 Y1.3557 
G01 X-2.7623 Y1.5179 
G01 X-2.7965 Y1.6902 
G00 Z0.5080 
G00 X-5.2349 Y22.5328 
G01 Z-0.2540 F254.00 
G01 X-5.2349 Y23.1872 
G01 X-4.7722 Y23.6499 
G01 X-4.1178 Y23.6499 
G01 X-3.6551 Y23.1872 
G01 X-3.6551 Y22.5328 
G01 X-4.1178 Y22.0701 
G01 X-4.7722 Y22.0701 
G01 X-5.2349 Y22.5328 
G00 Z0.5080 
G00 X-2.6949 Y22.5328 
G01 Z-0.2540 F254.00 
G01 X-2.6949 Y23.1872 
G01 X-2.2322 Y23.6499 
G01 X-1.5778 Y23.6499 
G01 X-1.1151 Y23.1872 
G01 X-1.1151 Y22.5328 
G01 X-1.5778 Y22.0701 
G01 X-2.2322 Y22.0701 
G01 X-2.6949 Y22.5328 
G00 Z0.5080 
G00 X-4.5999 Y11.1028 
G01 Z-0.2540 F254.00 
G01 X-4.5999 Y11.7572 
G01 X-4.1372 Y12.2199 
G01 X-3.4828 Y12.2199 
G01 X-3.0201 Y11.7572 
G01 X-3.0201 Y11.1028 
G01 X-3.4828 Y10.6401 
G01 X-4.1372 Y10.6401 
G01 X-4.1692 Y10.6721 
G01 X-4.7981 Y10.0432 
G01 X-4.7981 Y8.8529 
G01 X-4.8173 Y8.7812 
G01 X-4.8544 Y8.7169 
G01 X-4.9069 Y8.6644 
G01 X-6.2636 Y7.3077 
G01 X-6.2254 Y7.2154 
G01 X-6.1951 Y7.0628 
G01 X-6.1951 Y6.9072 
G01 X-6.2254 Y6.7546 
G01 X-6.2850 Y6.6108 
G01 X-6.3714 Y6.4814 
G01 X-6.4814 Y6.3714 
G01 X-6.6108 Y6.2850 
G01 X-6.7546 Y6.2254 
G01 X-6.9072 Y6.1951 
G01 X-7.0628 Y6.1951 
G01 X-7.2154 Y6.2254 
G01 X-7.3592 Y6.2850 
G01 X-7.4886 Y6.3714 
G01 X-7.5986 Y6.4814 
G01 X-7.6850 Y6.6108 
G01 X-7.7446 Y6.7546 
G01 X-7.7749 Y6.9072 
G01 X-7.7749 Y7.0628 
G01 X-7.7446 Y7.2154 
G01 X-7.6850 Y7.3592 
G01 X-7.5986 Y7.4886 
G01 X-7.4886 Y7.5986 
G01 X-7.3592 Y7.6850 
G01 X-7.2154 Y7.7446 
G01 X-7.0628 Y7.7749 
G01 X-6.9072 Y7.7749 
G01 X-6.7546 Y7.7446 
G01 X-6.6623 Y7.7064 
G01 X-5.3619 Y9.0068 
G01 X-5.3619 Y10.1971 
G01 X-5.3427 Y10.2688 
G01 X-5.3056 Y10.3331 
G01 X-4.5679 Y11.0708 
G01 X-4.5999 Y11.1028 
G00 Z0.5080 
G00 X-2.6949 Y12.3728 
G01 Z-0.2540 F254.00 
G01 X-2.6949 Y13.0272 
G01 X-2.2322 Y13.4899 
G01 X-1.5778 Y13.4899 
G01 X-1.1151 Y13.0272 
G01 X-1.1151 Y12.3728 
G01 X-1.5778 Y11.9101 
G01 X-2.2322 Y11.9101 
G01 X-2.6949 Y12.3728 
G00 Z0.5080 
G00 X-4.5999 Y13.6428 
G01 Z-0.2540 F254.00 
G01 X-4.5999 Y14.2972 
G01 X-4.1372 Y14.7599 
G01 X-3.4828 Y14.7599 
G01 X-3.0201 Y14.2972 
G01 X-3.0201 Y13.6428 
G01 X-3.4828 Y13.1801 
G01 X-4.1372 Y13.1801 
G01 X-4.5999 Y13.6428 
G00 Z0.5080 
G00 X-37.2389 Y13.3888 
G01 Z-0.2540 F254.00 
G01 X-37.2111 Y13.4928 
G01 X-37.1572 Y13.5861 
G01 X-37.0811 Y13.6622 
G01 X-35.3339 Y15.4094 
G01 X-35.3339 Y15.6615 
G01 X-35.3593 Y15.6720 
G01 X-35.5095 Y15.7724 
G01 X-35.6372 Y15.9001 
G01 X-35.7376 Y16.0503 
G01 X-35.8067 Y16.2171 
G01 X-35.8419 Y16.3943 
G01 X-35.8419 Y17.8957 
G01 X-35.8067 Y18.0729 
G01 X-35.7376 Y18.2397 
G01 X-35.6372 Y18.3899 
G01 X-35.5095 Y18.5176 
G01 X-35.3593 Y18.6180 
G01 X-35.3036 Y18.6411 
G01 X-35.3906 Y18.6411 
G01 X-37.6911 Y16.3406 
G01 X-37.6911 Y7.7531 
G01 X-37.6897 Y7.7526 
G01 X-37.5479 Y7.6578 
G01 X-37.4272 Y7.5371 
G01 X-37.3324 Y7.3953 
G01 X-37.2671 Y7.2376 
G01 X-37.2389 Y7.0958 
G01 X-37.2389 Y13.3888 
G00 Z0.5080 
G00 X-4.7269 Y13.5902 
G01 Z-0.2540 F254.00 
G01 X-4.7269 Y14.3498 
G01 X-4.1898 Y14.8869 
G01 X-3.4302 Y14.8869 
G01 X-2.8931 Y14.3498 
G01 X-2.8931 Y13.5902 
G01 X-3.4302 Y13.0531 
G01 X-4.1898 Y13.0531 
G01 X-4.7269 Y13.5902 
G00 Z0.5080 
G00 X-2.8219 Y12.3202 
G01 Z-0.2540 F254.00 
G01 X-2.8219 Y13.0798 
G01 X-2.2848 Y13.6169 
G01 X-1.5252 Y13.6169 
G01 X-0.9881 Y13.0798 
G01 X-0.9881 Y12.3202 
G01 X-1.5252 Y11.7831 
G01 X-2.2848 Y11.7831 
G01 X-2.8219 Y12.3202 
G00 Z0.5080 
G00 X-2.8219 Y22.4802 
G01 Z-0.2540 F254.00 
G01 X-2.8219 Y23.2398 
G01 X-2.2848 Y23.7769 
G01 X-1.5252 Y23.7769 
G01 X-0.9881 Y23.2398 
G01 X-0.9881 Y22.4802 
G01 X-1.5252 Y21.9431 
G01 X-2.2848 Y21.9431 
G01 X-2.8219 Y22.4802 
G00 Z0.5080 
G00 X-5.3619 Y22.4802 
G01 Z-0.2540 F254.00 
G01 X-5.3619 Y23.2398 
G01 X-4.8248 Y23.7769 
G01 X-4.0652 Y23.7769 
G01 X-3.5281 Y23.2398 
G01 X-3.5281 Y22.4802 
G01 X-4.0652 Y21.9431 
G01 X-4.8248 Y21.9431 
G01 X-5.3619 Y22.4802 
G00 Z0.5080 
G00 X-2.9235 Y1.6777 
G01 Z-0.2540 F254.00 
G01 X-2.9235 Y3.4023 
G01 X-2.8844 Y3.5991 
G01 X-2.8076 Y3.7845 
G01 X-2.6962 Y3.9513 
G01 X-2.5543 Y4.0932 
G01 X-2.3875 Y4.2046 
G01 X-2.2021 Y4.2814 
G01 X-2.0053 Y4.3205 
G01 X-1.8047 Y4.3205 
G01 X-1.6079 Y4.2814 
G01 X-1.4225 Y4.2046 
G01 X-1.2557 Y4.0932 
G01 X-1.1138 Y3.9513 
G01 X-1.0024 Y3.7845 
G01 X-0.9256 Y3.5991 
G01 X-0.8865 Y3.4023 
G01 X-0.8865 Y1.6777 
G01 X-0.9256 Y1.4809 
G01 X-1.0024 Y1.2955 
G01 X-1.1138 Y1.1287 
G01 X-1.2557 Y0.9868 
G01 X-1.4225 Y0.8754 
G01 X-1.6079 Y0.7986 
G01 X-1.8047 Y0.7595 
G01 X-2.0053 Y0.7595 
G01 X-2.2021 Y0.7986 
G01 X-2.3875 Y0.8754 
G01 X-2.5543 Y0.9868 
G01 X-2.6962 Y1.1287 
G01 X-2.8076 Y1.2955 
G01 X-2.8844 Y1.4809 
G01 X-2.9235 Y1.6777 
G00 Z0.5080 
G00 X-5.4635 Y1.6777 
G01 Z-0.2540 F254.00 
G01 X-5.4635 Y3.4023 
G01 X-5.4244 Y3.5991 
G01 X-5.3476 Y3.7845 
G01 X-5.2362 Y3.9513 
G01 X-5.0943 Y4.0932 
G01 X-4.9275 Y4.2046 
G01 X-4.7421 Y4.2814 
G01 X-4.5453 Y4.3205 
G01 X-4.3447 Y4.3205 
G01 X-4.1479 Y4.2814 
G01 X-3.9625 Y4.2046 
G01 X-3.7957 Y4.0932 
G01 X-3.6538 Y3.9513 
G01 X-3.5424 Y3.7845 
G01 X-3.4656 Y3.5991 
G01 X-3.4265 Y3.4023 
G01 X-3.4265 Y1.6777 
G01 X-3.4656 Y1.4809 
G01 X-3.5424 Y1.2955 
G01 X-3.6538 Y1.1287 
G01 X-3.7957 Y0.9868 
G01 X-3.9625 Y0.8754 
G01 X-4.1479 Y0.7986 
G01 X-4.3447 Y0.7595 
G01 X-4.5453 Y0.7595 
G01 X-4.7421 Y0.7986 
G01 X-4.9275 Y0.8754 
G01 X-5.0943 Y0.9868 
G01 X-5.2362 Y1.1287 
G01 X-5.3476 Y1.2955 
G01 X-5.4244 Y1.4809 
G01 X-5.4635 Y1.6777 
G00 Z0.5080 
G00 X-8.0035 Y1.6777 
G01 Z-0.2540 F254.00 
G01 X-8.0035 Y3.4023 
G01 X-7.9644 Y3.5991 
G01 X-7.8876 Y3.7845 
G01 X-7.7762 Y3.9513 
G01 X-7.6343 Y4.0932 
G01 X-7.4675 Y4.2046 
G01 X-7.2821 Y4.2814 
G01 X-7.0853 Y4.3205 
G01 X-6.8847 Y4.3205 
G01 X-6.6879 Y4.2814 
G01 X-6.5025 Y4.2046 
G01 X-6.3357 Y4.0932 
G01 X-6.1938 Y3.9513 
G01 X-6.0824 Y3.7845 
G01 X-6.0056 Y3.5991 
G01 X-5.9665 Y3.4023 
G01 X-5.9665 Y1.6777 
G01 X-6.0056 Y1.4809 
G01 X-6.0824 Y1.2955 
G01 X-6.1938 Y1.1287 
G01 X-6.3357 Y0.9868 
G01 X-6.5025 Y0.8754 
G01 X-6.6879 Y0.7986 
G01 X-6.8847 Y0.7595 
G01 X-7.0853 Y0.7595 
G01 X-7.2821 Y0.7986 
G01 X-7.4675 Y0.8754 
G01 X-7.6343 Y0.9868 
G01 X-7.7762 Y1.1287 
G01 X-7.8876 Y1.2955 
G01 X-7.9644 Y1.4809 
G01 X-8.0035 Y1.6777 
G00 Z0.5080 
G00 X-10.5435 Y1.6777 
G01 Z-0.2540 F254.00 
G01 X-10.5435 Y3.4023 
G01 X-10.5044 Y3.5991 
G01 X-10.4276 Y3.7845 
G01 X-10.3162 Y3.9513 
G01 X-10.1743 Y4.0932 
G01 X-10.0075 Y4.2046 
G01 X-9.9339 Y4.2351 
G01 X-9.9339 Y17.6106 
G01 X-10.9644 Y18.6411 
G01 X-14.2264 Y18.6411 
G01 X-14.1707 Y18.6180 
G01 X-14.0205 Y18.5176 
G01 X-13.8928 Y18.3899 
G01 X-13.7924 Y18.2397 
G01 X-13.7233 Y18.0729 
G01 X-13.6881 Y17.8957 
G01 X-13.6881 Y16.3943 
G01 X-13.7233 Y16.2171 
G01 X-13.7924 Y16.0503 
G01 X-13.8928 Y15.9001 
G01 X-14.0205 Y15.7724 
G01 X-14.1707 Y15.6720 
G01 X-14.1961 Y15.6615 
G01 X-14.1961 Y14.7744 
G01 X-12.4489 Y13.0272 
G01 X-12.3728 Y12.9511 
G01 X-12.3189 Y12.8578 
G01 X-12.2911 Y12.7538 
G01 X-12.2911 Y5.8844 
G01 X-11.8139 Y5.4072 
G01 X-11.7378 Y5.3311 
G01 X-11.6839 Y5.2378 
G01 X-11.6561 Y5.1338 
G01 X-11.6561 Y4.2351 
G01 X-11.5825 Y4.2046 
G01 X-11.4157 Y4.0932 
G01 X-11.2738 Y3.9513 
G01 X-11.1624 Y3.7845 
G01 X-11.0856 Y3.5991 
G01 X-11.0465 Y3.4023 
G01 X-11.0465 Y1.6777 
G01 X-11.0856 Y1.4809 
G01 X-11.1624 Y1.2955 
G01 X-11.2738 Y1.1287 
G01 X-11.4157 Y0.9868 
G01 X-11.5825 Y0.8754 
G01 X-11.7679 Y0.7986 
G01 X-11.9647 Y0.7595 
G01 X-12.1653 Y0.7595 
G01 X-12.3621 Y0.7986 
G01 X-12.5475 Y0.8754 
G01 X-12.7143 Y0.9868 
G01 X-12.8562 Y1.1287 
G01 X-12.9676 Y1.2955 
G01 X-13.0444 Y1.4809 
G01 X-13.0835 Y1.6777 
G01 X-13.0835 Y3.4023 
G01 X-13.0444 Y3.5991 
G01 X-12.9676 Y3.7845 
G01 X-12.8562 Y3.9513 
G01 X-12.7143 Y4.0932 
G01 X-12.5475 Y4.2046 
G01 X-12.4739 Y4.2351 
G01 X-12.4739 Y4.9106 
G01 X-13.0272 Y5.4639 
G01 X-13.0811 Y5.5572 
G01 X-13.1089 Y5.6612 
G01 X-13.1089 Y12.5306 
G01 X-14.9322 Y14.3539 
G01 X-14.9861 Y14.4472 
G01 X-15.0139 Y14.5512 
G01 X-15.0139 Y15.6615 
G01 X-15.0393 Y15.6720 
G01 X-15.1895 Y15.7724 
G01 X-15.3172 Y15.9001 
G01 X-15.4176 Y16.0503 
G01 X-15.4867 Y16.2171 
G01 X-15.5219 Y16.3943 
G01 X-15.5219 Y17.8957 
G01 X-15.4867 Y18.0729 
G01 X-15.4176 Y18.2397 
G01 X-15.3172 Y18.3899 
G01 X-15.1895 Y18.5176 
G01 X-15.0393 Y18.6180 
G01 X-14.9836 Y18.6411 
G01 X-16.3406 Y18.6411 
G01 X-16.5123 Y18.4694 
G01 X-16.4328 Y18.3899 
G01 X-16.3324 Y18.2397 
G01 X-16.2633 Y18.0729 
G01 X-16.2281 Y17.8957 
G01 X-16.2281 Y16.3943 
G01 X-16.2633 Y16.2171 
G01 X-16.3324 Y16.0503 
G01 X-16.4328 Y15.9001 
G01 X-16.5605 Y15.7724 
G01 X-16.7107 Y15.6720 
G01 X-16.8775 Y15.6029 
G01 X-17.0547 Y15.5677 
G01 X-17.2353 Y15.5677 
G01 X-17.4125 Y15.6029 
G01 X-17.5793 Y15.6720 
G01 X-17.7295 Y15.7724 
G01 X-17.8572 Y15.9001 
G01 X-17.9576 Y16.0503 
G01 X-18.0267 Y16.2171 
G01 X-18.0619 Y16.3943 
G01 X-18.0619 Y17.8957 
G01 X-18.0267 Y18.0729 
G01 X-17.9576 Y18.2397 
G01 X-17.8572 Y18.3899 
G01 X-17.7295 Y18.5176 
G01 X-17.5793 Y18.6180 
G01 X-17.4751 Y18.6612 
G01 X-17.4722 Y18.6661 
G01 X-16.8372 Y19.3011 
G01 X-16.7611 Y19.3772 
G01 X-16.6678 Y19.4311 
G01 X-16.5638 Y19.4589 
G01 X-10.7412 Y19.4589 
G01 X-10.6372 Y19.4311 
G01 X-10.5439 Y19.3772 
G01 X-9.2739 Y18.1072 
G01 X-9.1978 Y18.0311 
G01 X-9.1439 Y17.9378 
G01 X-9.1161 Y17.8338 
G01 X-9.1161 Y4.2351 
G01 X-9.0425 Y4.2046 
G01 X-8.8757 Y4.0932 
G01 X-8.7338 Y3.9513 
G01 X-8.6224 Y3.7845 
G01 X-8.5456 Y3.5991 
G01 X-8.5065 Y3.4023 
G01 X-8.5065 Y1.6777 
G01 X-8.5456 Y1.4809 
G01 X-8.6224 Y1.2955 
G01 X-8.7338 Y1.1287 
G01 X-8.8757 Y0.9868 
G01 X-9.0425 Y0.8754 
G01 X-9.2279 Y0.7986 
G01 X-9.4247 Y0.7595 
G01 X-9.6253 Y0.7595 
G01 X-9.8221 Y0.7986 
G01 X-10.0075 Y0.8754 
G01 X-10.1743 Y0.9868 
G01 X-10.3162 Y1.1287 
G01 X-10.4276 Y1.2955 
G01 X-10.5044 Y1.4809 
G01 X-10.5435 Y1.6777 
G00 Z0.5080 
G00 X-15.6235 Y1.6777 
G01 Z-0.2540 F254.00 
G01 X-15.6235 Y3.4023 
G01 X-15.5844 Y3.5991 
G01 X-15.5076 Y3.7845 
G01 X-15.3962 Y3.9513 
G01 X-15.2543 Y4.0932 
G01 X-15.0875 Y4.2046 
G01 X-14.9021 Y4.2814 
G01 X-14.7053 Y4.3205 
G01 X-14.5047 Y4.3205 
G01 X-14.3079 Y4.2814 
G01 X-14.1225 Y4.2046 
G01 X-13.9557 Y4.0932 
G01 X-13.8138 Y3.9513 
G01 X-13.7024 Y3.7845 
G01 X-13.6256 Y3.5991 
G01 X-13.5865 Y3.4023 
G01 X-13.5865 Y1.6777 
G01 X-13.6256 Y1.4809 
G01 X-13.7024 Y1.2955 
G01 X-13.8138 Y1.1287 
G01 X-13.9557 Y0.9868 
G01 X-14.1225 Y0.8754 
G01 X-14.3079 Y0.7986 
G01 X-14.5047 Y0.7595 
G01 X-14.7053 Y0.7595 
G01 X-14.9021 Y0.7986 
G01 X-15.0875 Y0.8754 
G01 X-15.2543 Y0.9868 
G01 X-15.3962 Y1.1287 
G01 X-15.5076 Y1.2955 
G01 X-15.5844 Y1.4809 
G01 X-15.6235 Y1.6777 
G00 Z0.5080 
G00 X-18.1635 Y1.6777 
G01 Z-0.2540 F254.00 
G01 X-18.1635 Y3.4023 
G01 X-18.1244 Y3.5991 
G01 X-18.0476 Y3.7845 
G01 X-17.9362 Y3.9513 
G01 X-17.7943 Y4.0932 
G01 X-17.6275 Y4.2046 
G01 X-17.4421 Y4.2814 
G01 X-17.2453 Y4.3205 
G01 X-17.0447 Y4.3205 
G01 X-16.8479 Y4.2814 
G01 X-16.6625 Y4.2046 
G01 X-16.4957 Y4.0932 
G01 X-16.3538 Y3.9513 
G01 X-16.2424 Y3.7845 
G01 X-16.1656 Y3.5991 
G01 X-16.1265 Y3.4023 
G01 X-16.1265 Y1.6777 
G01 X-16.1656 Y1.4809 
G01 X-16.2424 Y1.2955 
G01 X-16.3538 Y1.1287 
G01 X-16.4957 Y0.9868 
G01 X-16.6625 Y0.8754 
G01 X-16.8479 Y0.7986 
G01 X-17.0447 Y0.7595 
G01 X-17.2453 Y0.7595 
G01 X-17.4421 Y0.7986 
G01 X-17.6275 Y0.8754 
G01 X-17.7943 Y0.9868 
G01 X-17.9362 Y1.1287 
G01 X-18.0476 Y1.2955 
G01 X-18.1244 Y1.4809 
G01 X-18.1635 Y1.6777 
G00 Z0.5080 
G00 X-20.7035 Y1.6777 
G01 Z-0.2540 F254.00 
G01 X-20.7035 Y3.4023 
G01 X-20.6644 Y3.5991 
G01 X-20.5876 Y3.7845 
G01 X-20.4762 Y3.9513 
G01 X-20.3343 Y4.0932 
G01 X-20.1675 Y4.2046 
G01 X-19.9821 Y4.2814 
G01 X-19.7853 Y4.3205 
G01 X-19.5847 Y4.3205 
G01 X-19.3879 Y4.2814 
G01 X-19.2025 Y4.2046 
G01 X-19.0357 Y4.0932 
G01 X-18.8938 Y3.9513 
G01 X-18.7824 Y3.7845 
G01 X-18.7056 Y3.5991 
G01 X-18.6665 Y3.4023 
G01 X-18.6665 Y1.6777 
G01 X-18.7056 Y1.4809 
G01 X-18.7824 Y1.2955 
G01 X-18.8938 Y1.1287 
G01 X-19.0357 Y0.9868 
G01 X-19.2025 Y0.8754 
G01 X-19.3879 Y0.7986 
G01 X-19.5847 Y0.7595 
G01 X-19.7853 Y0.7595 
G01 X-19.9821 Y0.7986 
G01 X-20.1675 Y0.8754 
G01 X-20.3343 Y0.9868 
G01 X-20.4762 Y1.1287 
G01 X-20.5876 Y1.2955 
G01 X-20.6644 Y1.4809 
G01 X-20.7035 Y1.6777 
G00 Z0.5080 
G00 X-23.2435 Y1.6777 
G01 Z-0.2540 F254.00 
G01 X-23.2435 Y3.4023 
G01 X-23.2044 Y3.5991 
G01 X-23.1276 Y3.7845 
G01 X-23.0161 Y3.9513 
G01 X-22.8743 Y4.0932 
G01 X-22.7075 Y4.2046 
G01 X-22.5221 Y4.2814 
G01 X-22.3253 Y4.3205 
G01 X-22.1247 Y4.3205 
G01 X-21.9279 Y4.2814 
G01 X-21.7425 Y4.2046 
G01 X-21.5757 Y4.0932 
G01 X-21.4338 Y3.9513 
G01 X-21.3224 Y3.7845 
G01 X-21.2456 Y3.5991 
G01 X-21.2065 Y3.4023 
G01 X-21.2065 Y1.6777 
G01 X-21.2456 Y1.4809 
G01 X-21.3224 Y1.2955 
G01 X-21.4338 Y1.1287 
G01 X-21.5757 Y0.9868 
G01 X-21.7425 Y0.8754 
G01 X-21.9279 Y0.7986 
G01 X-22.1247 Y0.7595 
G01 X-22.3253 Y0.7595 
G01 X-22.5221 Y0.7986 
G01 X-22.7075 Y0.8754 
G01 X-22.8743 Y0.9868 
G01 X-23.0161 Y1.1287 
G01 X-23.1276 Y1.2955 
G01 X-23.2044 Y1.4809 
G01 X-23.2435 Y1.6777 
G00 Z0.5080 
G00 X-25.7835 Y1.6777 
G01 Z-0.2540 F254.00 
G01 X-25.7835 Y3.4023 
G01 X-25.7444 Y3.5991 
G01 X-25.6676 Y3.7845 
G01 X-25.5562 Y3.9513 
G01 X-25.4143 Y4.0932 
G01 X-25.2475 Y4.2046 
G01 X-25.0621 Y4.2814 
G01 X-24.8653 Y4.3205 
G01 X-24.6647 Y4.3205 
G01 X-24.4679 Y4.2814 
G01 X-24.2825 Y4.2046 
G01 X-24.1157 Y4.0932 
G01 X-23.9738 Y3.9513 
G01 X-23.8624 Y3.7845 
G01 X-23.7856 Y3.5991 
G01 X-23.7465 Y3.4023 
G01 X-23.7465 Y1.6777 
G01 X-23.7856 Y1.4809 
G01 X-23.8624 Y1.2955 
G01 X-23.9738 Y1.1287 
G01 X-24.1157 Y0.9868 
G01 X-24.2825 Y0.8754 
G01 X-24.4679 Y0.7986 
G01 X-24.6647 Y0.7595 
G01 X-24.8653 Y0.7595 
G01 X-25.0621 Y0.7986 
G01 X-25.2475 Y0.8754 
G01 X-25.4143 Y0.9868 
G01 X-25.5562 Y1.1287 
G01 X-25.6676 Y1.2955 
G01 X-25.7444 Y1.4809 
G01 X-25.7835 Y1.6777 
G00 Z0.5080 
G00 X-28.3235 Y1.6777 
G01 Z-0.2540 F254.00 
G01 X-28.3235 Y3.4023 
G01 X-28.2844 Y3.5991 
G01 X-28.2076 Y3.7845 
G01 X-28.0962 Y3.9513 
G01 X-27.9543 Y4.0932 
G01 X-27.7875 Y4.2046 
G01 X-27.6021 Y4.2814 
G01 X-27.4053 Y4.3205 
G01 X-27.2047 Y4.3205 
G01 X-27.0079 Y4.2814 
G01 X-26.8225 Y4.2046 
G01 X-26.6557 Y4.0932 
G01 X-26.5138 Y3.9513 
G01 X-26.4024 Y3.7845 
G01 X-26.3256 Y3.5991 
G01 X-26.2865 Y3.4023 
G01 X-26.2865 Y1.6777 
G01 X-26.3256 Y1.4809 
G01 X-26.4024 Y1.2955 
G01 X-26.5138 Y1.1287 
G01 X-26.6557 Y0.9868 
G01 X-26.8225 Y0.8754 
G01 X-27.0079 Y0.7986 
G01 X-27.2047 Y0.7595 
G01 X-27.4053 Y0.7595 
G01 X-27.6021 Y0.7986 
G01 X-27.7875 Y0.8754 
G01 X-27.9543 Y0.9868 
G01 X-28.0962 Y1.1287 
G01 X-28.2076 Y1.2955 
G01 X-28.2844 Y1.4809 
G01 X-28.3235 Y1.6777 
G00 Z0.5080 
G00 X-30.8635 Y1.6777 
G01 Z-0.2540 F254.00 
G01 X-30.8635 Y3.4023 
G01 X-30.8244 Y3.5991 
G01 X-30.7476 Y3.7845 
G01 X-30.6362 Y3.9513 
G01 X-30.4943 Y4.0932 
G01 X-30.3275 Y4.2046 
G01 X-30.1421 Y4.2814 
G01 X-29.9453 Y4.3205 
G01 X-29.7447 Y4.3205 
G01 X-29.5479 Y4.2814 
G01 X-29.3625 Y4.2046 
G01 X-29.1957 Y4.0932 
G01 X-29.0538 Y3.9513 
G01 X-28.9424 Y3.7845 
G01 X-28.8656 Y3.5991 
G01 X-28.8265 Y3.4023 
G01 X-28.8265 Y1.6777 
G01 X-28.8656 Y1.4809 
G01 X-28.9424 Y1.2955 
G01 X-29.0538 Y1.1287 
G01 X-29.1957 Y0.9868 
G01 X-29.3625 Y0.8754 
G01 X-29.5479 Y0.7986 
G01 X-29.7447 Y0.7595 
G01 X-29.9453 Y0.7595 
G01 X-30.1421 Y0.7986 
G01 X-30.3275 Y0.8754 
G01 X-30.4943 Y0.9868 
G01 X-30.6362 Y1.1287 
G01 X-30.7476 Y1.2955 
G01 X-30.8244 Y1.4809 
G01 X-30.8635 Y1.6777 
G00 Z0.5080 
G00 X-35.9435 Y1.6777 
G01 Z-0.2540 F254.00 
G01 X-35.9435 Y3.4023 
G01 X-35.9044 Y3.5991 
G01 X-35.8276 Y3.7845 
G01 X-35.7161 Y3.9513 
G01 X-35.5743 Y4.0932 
G01 X-35.4075 Y4.2046 
G01 X-35.2221 Y4.2814 
G01 X-35.0253 Y4.3205 
G01 X-34.8247 Y4.3205 
G01 X-34.6279 Y4.2814 
G01 X-34.4425 Y4.2046 
G01 X-34.2757 Y4.0932 
G01 X-34.1338 Y3.9513 
G01 X-34.0224 Y3.7845 
G01 X-33.9456 Y3.5991 
G01 X-33.9065 Y3.4023 
G01 X-33.9065 Y1.6777 
G01 X-33.9456 Y1.4809 
G01 X-34.0224 Y1.2955 
G01 X-34.1338 Y1.1287 
G01 X-34.2757 Y0.9868 
G01 X-34.4425 Y0.8754 
G01 X-34.6279 Y0.7986 
G01 X-34.8247 Y0.7595 
G01 X-35.0253 Y0.7595 
G01 X-35.2221 Y0.7986 
G01 X-35.4075 Y0.8754 
G01 X-35.5743 Y0.9868 
G01 X-35.7161 Y1.1287 
G01 X-35.8276 Y1.2955 
G01 X-35.9044 Y1.4809 
G01 X-35.9435 Y1.6777 
G00 Z0.5080 
G00 X-38.4835 Y1.6777 
G01 Z-0.2540 F254.00 
G01 X-38.4835 Y3.4023 
G01 X-38.4444 Y3.5991 
G01 X-38.3676 Y3.7845 
G01 X-38.2562 Y3.9513 
G01 X-38.1143 Y4.0932 
G01 X-37.9475 Y4.2046 
G01 X-37.7621 Y4.2814 
G01 X-37.5653 Y4.3205 
G01 X-37.3647 Y4.3205 
G01 X-37.1679 Y4.2814 
G01 X-36.9825 Y4.2046 
G01 X-36.8157 Y4.0932 
G01 X-36.6738 Y3.9513 
G01 X-36.5624 Y3.7845 
G01 X-36.4856 Y3.5991 
G01 X-36.4465 Y3.4023 
G01 X-36.4465 Y1.6777 
G01 X-36.4856 Y1.4809 
G01 X-36.5624 Y1.2955 
G01 X-36.6738 Y1.1287 
G01 X-36.8157 Y0.9868 
G01 X-36.9825 Y0.8754 
G01 X-37.1679 Y0.7986 
G01 X-37.3647 Y0.7595 
G01 X-37.5653 Y0.7595 
G01 X-37.7621 Y0.7986 
G01 X-37.9475 Y0.8754 
G01 X-38.1143 Y0.9868 
G01 X-38.2562 Y1.1287 
G01 X-38.3676 Y1.2955 
G01 X-38.4444 Y1.4809 
G01 X-38.4835 Y1.6777 
G00 Z0.5080 
G00 X-41.0235 Y1.6777 
G01 Z-0.2540 F254.00 
G01 X-41.0235 Y3.4023 
G01 X-40.9844 Y3.5991 
G01 X-40.9076 Y3.7845 
G01 X-40.7962 Y3.9513 
G01 X-40.6543 Y4.0932 
G01 X-40.4875 Y4.2046 
G01 X-40.3021 Y4.2814 
G01 X-40.1053 Y4.3205 
G01 X-39.9047 Y4.3205 
G01 X-39.7079 Y4.2814 
G01 X-39.5225 Y4.2046 
G01 X-39.3557 Y4.0932 
G01 X-39.2138 Y3.9513 
G01 X-39.1024 Y3.7845 
G01 X-39.0256 Y3.5991 
G01 X-38.9865 Y3.4023 
G01 X-38.9865 Y1.6777 
G01 X-39.0256 Y1.4809 
G01 X-39.1024 Y1.2955 
G01 X-39.2138 Y1.1287 
G01 X-39.3557 Y0.9868 
G01 X-39.5225 Y0.8754 
G01 X-39.7079 Y0.7986 
G01 X-39.9047 Y0.7595 
G01 X-40.1053 Y0.7595 
G01 X-40.3021 Y0.7986 
G01 X-40.4875 Y0.8754 
G01 X-40.6543 Y0.9868 
G01 X-40.7962 Y1.1287 
G01 X-40.9076 Y1.2955 
G01 X-40.9844 Y1.4809 
G01 X-41.0235 Y1.6777 
G00 Z0.5080 
G00 X-43.5635 Y1.6777 
G01 Z-0.2540 F254.00 
G01 X-43.5635 Y3.4023 
G01 X-43.5244 Y3.5991 
G01 X-43.4476 Y3.7845 
G01 X-43.3362 Y3.9513 
G01 X-43.1943 Y4.0932 
G01 X-43.0275 Y4.2046 
G01 X-42.8421 Y4.2814 
G01 X-42.6453 Y4.3205 
G01 X-42.4447 Y4.3205 
G01 X-42.2479 Y4.2814 
G01 X-42.0625 Y4.2046 
G01 X-41.8957 Y4.0932 
G01 X-41.7538 Y3.9513 
G01 X-41.6424 Y3.7845 
G01 X-41.5656 Y3.5991 
G01 X-41.5265 Y3.4023 
G01 X-41.5265 Y1.6777 
G01 X-41.5656 Y1.4809 
G01 X-41.6424 Y1.2955 
G01 X-41.7538 Y1.1287 
G01 X-41.8957 Y0.9868 
G01 X-42.0625 Y0.8754 
G01 X-42.2479 Y0.7986 
G01 X-42.4447 Y0.7595 
G01 X-42.6453 Y0.7595 
G01 X-42.8421 Y0.7986 
G01 X-43.0275 Y0.8754 
G01 X-43.1943 Y0.9868 
G01 X-43.3362 Y1.1287 
G01 X-43.4476 Y1.2955 
G01 X-43.5244 Y1.4809 
G01 X-43.5635 Y1.6777 
G00 Z0.5080 
G00 X-42.1615 Y22.4523 
G01 Z-0.2540 F254.00 
G01 X-42.1615 Y20.7277 
G01 X-42.2006 Y20.5309 
G01 X-42.2774 Y20.3455 
G01 X-42.3888 Y20.1787 
G01 X-42.5307 Y20.0368 
G01 X-42.6975 Y19.9254 
G01 X-42.8829 Y19.8486 
G01 X-43.0797 Y19.8095 
G01 X-43.2803 Y19.8095 
G01 X-43.4771 Y19.8486 
G01 X-43.6625 Y19.9254 
G01 X-43.8293 Y20.0368 
G01 X-43.9712 Y20.1787 
G01 X-44.0826 Y20.3455 
G01 X-44.1594 Y20.5309 
G01 X-44.1985 Y20.7277 
G01 X-44.1985 Y22.4523 
G01 X-44.1594 Y22.6491 
G01 X-44.0826 Y22.8345 
G01 X-43.9712 Y23.0013 
G01 X-43.8293 Y23.1432 
G01 X-43.6625 Y23.2546 
G01 X-43.4771 Y23.3314 
G01 X-43.2803 Y23.3705 
G01 X-43.0797 Y23.3705 
G01 X-42.8829 Y23.3314 
G01 X-42.6975 Y23.2546 
G01 X-42.5307 Y23.1432 
G01 X-42.3888 Y23.0013 
G01 X-42.2774 Y22.8345 
G01 X-42.2006 Y22.6491 
G01 X-42.1615 Y22.4523 
G00 Z0.5080 
G00 X-39.6215 Y22.4523 
G01 Z-0.2540 F254.00 
G01 X-39.6215 Y21.7814 
G01 X-39.1185 Y21.2785 
G01 X-39.1185 Y22.4523 
G01 X-39.0794 Y22.6491 
G01 X-39.0026 Y22.8345 
G01 X-38.8912 Y23.0013 
G01 X-38.7493 Y23.1432 
G01 X-38.5825 Y23.2546 
G01 X-38.3971 Y23.3314 
G01 X-38.2003 Y23.3705 
G01 X-37.9997 Y23.3705 
G01 X-37.8029 Y23.3314 
G01 X-37.6175 Y23.2546 
G01 X-37.4507 Y23.1432 
G01 X-37.3088 Y23.0013 
G01 X-37.1974 Y22.8345 
G01 X-37.1206 Y22.6491 
G01 X-37.0815 Y22.4523 
G01 X-37.0815 Y20.7277 
G01 X-37.1206 Y20.5309 
G01 X-37.1974 Y20.3455 
G01 X-37.3088 Y20.1787 
G01 X-37.3446 Y20.1429 
G01 X-37.2956 Y20.0939 
G01 X-36.2664 Y20.0939 
G01 X-36.3512 Y20.1787 
G01 X-36.4626 Y20.3455 
G01 X-36.5394 Y20.5309 
G01 X-36.5785 Y20.7277 
G01 X-36.5785 Y22.4523 
G01 X-36.5394 Y22.6491 
G01 X-36.4626 Y22.8345 
G01 X-36.3512 Y23.0013 
G01 X-36.2093 Y23.1432 
G01 X-36.0425 Y23.2546 
G01 X-35.8571 Y23.3314 
G01 X-35.6603 Y23.3705 
G01 X-35.4597 Y23.3705 
G01 X-35.2629 Y23.3314 
G01 X-35.0775 Y23.2546 
G01 X-34.9107 Y23.1432 
G01 X-34.7688 Y23.0013 
G01 X-34.6574 Y22.8345 
G01 X-34.5806 Y22.6491 
G01 X-34.5415 Y22.4523 
G01 X-34.5415 Y20.7277 
G01 X-34.5806 Y20.5309 
G01 X-34.6574 Y20.3455 
G01 X-34.7688 Y20.1787 
G01 X-34.8536 Y20.0939 
G01 X-27.8862 Y20.0939 
G01 X-27.7822 Y20.0661 
G01 X-27.6889 Y20.0122 
G01 X-27.6128 Y19.9361 
G01 X-26.9778 Y19.3011 
G01 X-26.9239 Y19.2078 
G01 X-26.8961 Y19.1038 
G01 X-26.8961 Y18.6285 
G01 X-26.8707 Y18.6180 
G01 X-26.7205 Y18.5176 
G01 X-26.5928 Y18.3899 
G01 X-26.4947 Y18.2432 
G01 X-26.4947 Y20.1296 
G01 X-27.7457 Y21.3805 
G01 X-27.8547 Y21.3589 
G01 X-28.0253 Y21.3589 
G01 X-28.1926 Y21.3921 
G01 X-28.3503 Y21.4574 
G01 X-28.4921 Y21.5522 
G01 X-28.6128 Y21.6729 
G01 X-28.7076 Y21.8147 
G01 X-28.7729 Y21.9724 
G01 X-28.8061 Y22.1397 
G01 X-28.8061 Y22.3103 
G01 X-28.7729 Y22.4776 
G01 X-28.7076 Y22.6353 
G01 X-28.6128 Y22.7771 
G01 X-28.4921 Y22.8978 
G01 X-28.3503 Y22.9926 
G01 X-28.1926 Y23.0579 
G01 X-28.0253 Y23.0911 
G01 X-27.8547 Y23.0911 
G01 X-27.6874 Y23.0579 
G01 X-27.5297 Y22.9926 
G01 X-27.3879 Y22.8978 
G01 X-27.2672 Y22.7771 
G01 X-27.1724 Y22.6353 
G01 X-27.1071 Y22.4776 
G01 X-27.0739 Y22.3103 
G01 X-27.0739 Y22.1397 
G01 X-27.0955 Y22.0307 
G01 X-25.7527 Y20.6879 
G01 X-25.6671 Y20.6023 
G01 X-25.6066 Y20.4975 
G01 X-25.5753 Y20.3805 
G01 X-25.5753 Y18.2432 
G01 X-25.4772 Y18.3899 
G01 X-25.3495 Y18.5176 
G01 X-25.1993 Y18.6180 
G01 X-25.0325 Y18.6871 
G01 X-24.8553 Y18.7223 
G01 X-24.6747 Y18.7223 
G01 X-24.4975 Y18.6871 
G01 X-24.3307 Y18.6180 
G01 X-24.1805 Y18.5176 
G01 X-24.0528 Y18.3899 
G01 X-23.9524 Y18.2397 
G01 X-23.8833 Y18.0729 
G01 X-23.8481 Y17.8957 
G01 X-23.8481 Y16.3943 
G01 X-23.8833 Y16.2171 
G01 X-23.9524 Y16.0503 
G01 X-24.0528 Y15.9001 
G01 X-24.1805 Y15.7724 
G01 X-24.3307 Y15.6720 
G01 X-24.4975 Y15.6029 
G01 X-24.6747 Y15.5677 
G01 X-24.8553 Y15.5677 
G01 X-25.0325 Y15.6029 
G01 X-25.1993 Y15.6720 
G01 X-25.3495 Y15.7724 
G01 X-25.4772 Y15.9001 
G01 X-25.5753 Y16.0468 
G01 X-25.5753 Y12.2554 
G01 X-24.4827 Y11.1629 
G01 X-24.3971 Y11.0773 
G01 X-24.3578 Y11.0092 
G01 X-24.3307 Y10.9980 
G01 X-24.1805 Y10.8976 
G01 X-24.0528 Y10.7699 
G01 X-23.9524 Y10.6197 
G01 X-23.8833 Y10.4529 
G01 X-23.8481 Y10.2757 
G01 X-23.8481 Y8.7743 
G01 X-23.8833 Y8.5971 
G01 X-23.9524 Y8.4303 
G01 X-24.0528 Y8.2801 
G01 X-24.1805 Y8.1524 
G01 X-24.3307 Y8.0520 
G01 X-24.4975 Y7.9829 
G01 X-24.6747 Y7.9477 
G01 X-24.8553 Y7.9477 
G01 X-25.0325 Y7.9829 
G01 X-25.1993 Y8.0520 
G01 X-25.3495 Y8.1524 
G01 X-25.4772 Y8.2801 
G01 X-25.5776 Y8.4303 
G01 X-25.6467 Y8.5971 
G01 X-25.6819 Y8.7743 
G01 X-25.6819 Y10.2757 
G01 X-25.6467 Y10.4529 
G01 X-25.5776 Y10.6197 
G01 X-25.4772 Y10.7699 
G01 X-25.4337 Y10.8135 
G01 X-26.4029 Y11.7827 
G01 X-26.4634 Y11.8875 
G01 X-26.4947 Y12.0045 
G01 X-26.4947 Y16.0468 
G01 X-26.5928 Y15.9001 
G01 X-26.7205 Y15.7724 
G01 X-26.8707 Y15.6720 
G01 X-27.0375 Y15.6029 
G01 X-27.2147 Y15.5677 
G01 X-27.3953 Y15.5677 
G01 X-27.5725 Y15.6029 
G01 X-27.7393 Y15.6720 
G01 X-27.8895 Y15.7724 
G01 X-28.0172 Y15.9001 
G01 X-28.1176 Y16.0503 
G01 X-28.1867 Y16.2171 
G01 X-28.2219 Y16.3943 
G01 X-28.2219 Y17.8957 
G01 X-28.1867 Y18.0729 
G01 X-28.1176 Y18.2397 
G01 X-28.0172 Y18.3899 
G01 X-27.8895 Y18.5176 
G01 X-27.7393 Y18.6180 
G01 X-27.7139 Y18.6285 
G01 X-27.7139 Y18.8806 
G01 X-28.1094 Y19.2761 
G01 X-32.6677 Y19.2761 
G01 X-32.1339 Y18.7422 
G01 X-32.1339 Y18.7422 
G01 X-32.0578 Y18.6661 
G01 X-32.0549 Y18.6612 
G01 X-31.9507 Y18.6180 
G01 X-31.8005 Y18.5176 
G01 X-31.6728 Y18.3899 
G01 X-31.5724 Y18.2397 
G01 X-31.5033 Y18.0729 
G01 X-31.4681 Y17.8957 
G01 X-31.4681 Y16.3943 
G01 X-31.5033 Y16.2171 
G01 X-31.5724 Y16.0503 
G01 X-31.6728 Y15.9001 
G01 X-31.8005 Y15.7724 
G01 X-31.9507 Y15.6720 
G01 X-32.1175 Y15.6029 
G01 X-32.2947 Y15.5677 
G01 X-32.4753 Y15.5677 
G01 X-32.6525 Y15.6029 
G01 X-32.8193 Y15.6720 
G01 X-32.9695 Y15.7724 
G01 X-33.0972 Y15.9001 
G01 X-33.1976 Y16.0503 
G01 X-33.2667 Y16.2171 
G01 X-33.3019 Y16.3943 
G01 X-33.3019 Y17.8957 
G01 X-33.2667 Y18.0729 
G01 X-33.1976 Y18.2397 
G01 X-33.0972 Y18.3899 
G01 X-33.0177 Y18.4694 
G01 X-33.1894 Y18.6411 
G01 X-34.5464 Y18.6411 
G01 X-34.4907 Y18.6180 
G01 X-34.3405 Y18.5176 
G01 X-34.2128 Y18.3899 
G01 X-34.1124 Y18.2397 
G01 X-34.0433 Y18.0729 
G01 X-34.0081 Y17.8957 
G01 X-34.0081 Y16.3943 
G01 X-34.0433 Y16.2171 
G01 X-34.1124 Y16.0503 
G01 X-34.2128 Y15.9001 
G01 X-34.3405 Y15.7724 
G01 X-34.4907 Y15.6720 
G01 X-34.5161 Y15.6615 
G01 X-34.5161 Y15.1862 
G01 X-34.5439 Y15.0822 
G01 X-34.5978 Y14.9889 
G01 X-36.4211 Y13.1656 
G01 X-36.4211 Y7.1544 
G01 X-34.7556 Y5.4889 
G01 X-33.3627 Y5.4889 
G01 X-33.4797 Y5.5374 
G01 X-33.6299 Y5.6378 
G01 X-33.7576 Y5.7655 
G01 X-33.8580 Y5.9157 
G01 X-33.9271 Y6.0825 
G01 X-33.9623 Y6.2597 
G01 X-33.9623 Y6.4403 
G01 X-33.9271 Y6.6175 
G01 X-33.8580 Y6.7843 
G01 X-33.7576 Y6.9345 
G01 X-33.6299 Y7.0622 
G01 X-33.4797 Y7.1626 
G01 X-33.3129 Y7.2317 
G01 X-33.1357 Y7.2669 
G01 X-31.6343 Y7.2669 
G01 X-31.4571 Y7.2317 
G01 X-31.2903 Y7.1626 
G01 X-31.1401 Y7.0622 
G01 X-31.0124 Y6.9345 
G01 X-30.9120 Y6.7843 
G01 X-30.8429 Y6.6175 
G01 X-30.8077 Y6.4403 
G01 X-30.8077 Y6.2597 
G01 X-30.8429 Y6.0825 
G01 X-30.9120 Y5.9157 
G01 X-31.0124 Y5.7655 
G01 X-31.1401 Y5.6378 
G01 X-31.2903 Y5.5374 
G01 X-31.4571 Y5.4683 
G01 X-31.6343 Y5.4331 
G01 X-32.8136 Y5.4331 
G01 X-32.7689 Y5.4072 
G01 X-32.1339 Y4.7722 
G01 X-32.0578 Y4.6961 
G01 X-32.0039 Y4.6028 
G01 X-31.9761 Y4.4988 
G01 X-31.9761 Y4.2351 
G01 X-31.9025 Y4.2046 
G01 X-31.7357 Y4.0932 
G01 X-31.5938 Y3.9513 
G01 X-31.4824 Y3.7845 
G01 X-31.4056 Y3.5991 
G01 X-31.3665 Y3.4023 
G01 X-31.3665 Y1.6777 
G01 X-31.4056 Y1.4809 
G01 X-31.4824 Y1.2955 
G01 X-31.5938 Y1.1287 
G01 X-31.7357 Y0.9868 
G01 X-31.9025 Y0.8754 
G01 X-32.0879 Y0.7986 
G01 X-32.2847 Y0.7595 
G01 X-32.4853 Y0.7595 
G01 X-32.6821 Y0.7986 
G01 X-32.8675 Y0.8754 
G01 X-33.0343 Y0.9868 
G01 X-33.1761 Y1.1287 
G01 X-33.2876 Y1.2955 
G01 X-33.3644 Y1.4809 
G01 X-33.4035 Y1.6777 
G01 X-33.4035 Y3.4023 
G01 X-33.3644 Y3.5991 
G01 X-33.2876 Y3.7845 
G01 X-33.1761 Y3.9513 
G01 X-33.0343 Y4.0932 
G01 X-32.8675 Y4.2046 
G01 X-32.7939 Y4.2351 
G01 X-32.7939 Y4.2756 
G01 X-33.1894 Y4.6711 
G01 X-34.9788 Y4.6711 
G01 X-35.0828 Y4.6989 
G01 X-35.1761 Y4.7528 
G01 X-35.2522 Y4.8289 
G01 X-37.1572 Y6.7339 
G01 X-37.2111 Y6.8272 
G01 X-37.2339 Y6.9122 
G01 X-37.2339 Y6.8997 
G01 X-37.2671 Y6.7324 
G01 X-37.3324 Y6.5747 
G01 X-37.4272 Y6.4329 
G01 X-37.5479 Y6.3122 
G01 X-37.6897 Y6.2174 
G01 X-37.8474 Y6.1521 
G01 X-38.0147 Y6.1189 
G01 X-38.1853 Y6.1189 
G01 X-38.3526 Y6.1521 
G01 X-38.5103 Y6.2174 
G01 X-38.6521 Y6.3122 
G01 X-38.7728 Y6.4329 
G01 X-38.8676 Y6.5747 
G01 X-38.9329 Y6.7324 
G01 X-38.9661 Y6.8997 
G01 X-38.9661 Y7.0703 
G01 X-38.9329 Y7.2376 
G01 X-38.8676 Y7.3953 
G01 X-38.7728 Y7.5371 
G01 X-38.6521 Y7.6578 
G01 X-38.5103 Y7.7526 
G01 X-38.5089 Y7.7531 
G01 X-38.5089 Y16.5638 
G01 X-38.4811 Y16.6678 
G01 X-38.4272 Y16.7611 
G01 X-35.9123 Y19.2761 
G01 X-37.5188 Y19.2761 
G01 X-37.6228 Y19.3039 
G01 X-37.7161 Y19.3578 
G01 X-38.1678 Y19.8095 
G01 X-38.2003 Y19.8095 
G01 X-38.3971 Y19.8486 
G01 X-38.5825 Y19.9254 
G01 X-38.7493 Y20.0368 
G01 X-38.8912 Y20.1787 
G01 X-38.9635 Y20.2869 
G01 X-38.9635 Y9.0172 
G01 X-38.9628 Y9.0169 
G01 X-38.8219 Y8.9228 
G01 X-38.7022 Y8.8031 
G01 X-38.6081 Y8.6622 
G01 X-38.5433 Y8.5058 
G01 X-38.5103 Y8.3397 
G01 X-38.5103 Y8.1703 
G01 X-38.5433 Y8.0042 
G01 X-38.6081 Y7.8478 
G01 X-38.7022 Y7.7069 
G01 X-38.8219 Y7.5872 
G01 X-38.9628 Y7.4931 
G01 X-39.1192 Y7.4283 
G01 X-39.2853 Y7.3953 
G01 X-39.4547 Y7.3953 
G01 X-39.6208 Y7.4283 
G01 X-39.7772 Y7.4931 
G01 X-39.9181 Y7.5872 
G01 X-40.0378 Y7.7069 
G01 X-40.1319 Y7.8478 
G01 X-40.1967 Y8.0042 
G01 X-40.2297 Y8.1703 
G01 X-40.2297 Y8.3397 
G01 X-40.1967 Y8.5058 
G01 X-40.1319 Y8.6622 
G01 X-40.0378 Y8.8031 
G01 X-39.9181 Y8.9228 
G01 X-39.7772 Y9.0169 
G01 X-39.7765 Y9.0172 
G01 X-39.7765 Y20.2869 
G01 X-39.8488 Y20.1787 
G01 X-39.9907 Y20.0368 
G01 X-40.1575 Y19.9254 
G01 X-40.3429 Y19.8486 
G01 X-40.5397 Y19.8095 
G01 X-40.7403 Y19.8095 
G01 X-40.9371 Y19.8486 
G01 X-41.1225 Y19.9254 
G01 X-41.2893 Y20.0368 
G01 X-41.4312 Y20.1787 
G01 X-41.5426 Y20.3455 
G01 X-41.6194 Y20.5309 
G01 X-41.6585 Y20.7277 
G01 X-41.6585 Y22.4523 
G01 X-41.6194 Y22.6491 
G01 X-41.5426 Y22.8345 
G01 X-41.4312 Y23.0013 
G01 X-41.2893 Y23.1432 
G01 X-41.1225 Y23.2546 
G01 X-40.9371 Y23.3314 
G01 X-40.7403 Y23.3705 
G01 X-40.5397 Y23.3705 
G01 X-40.3429 Y23.3314 
G01 X-40.1575 Y23.2546 
G01 X-39.9907 Y23.1432 
G01 X-39.8488 Y23.0013 
G01 X-39.7374 Y22.8345 
G01 X-39.6606 Y22.6491 
G01 X-39.6215 Y22.4523 
G00 Z0.5080 
G00 X-18.7681 Y17.8957 
G01 Z-0.2540 F254.00 
G01 X-18.7681 Y16.3943 
G01 X-18.8033 Y16.2171 
G01 X-18.8724 Y16.0503 
G01 X-18.9728 Y15.9001 
G01 X-19.1005 Y15.7724 
G01 X-19.2507 Y15.6720 
G01 X-19.4175 Y15.6029 
G01 X-19.5947 Y15.5677 
G01 X-19.7753 Y15.5677 
G01 X-19.9525 Y15.6029 
G01 X-20.1193 Y15.6720 
G01 X-20.2695 Y15.7724 
G01 X-20.3972 Y15.9001 
G01 X-20.4976 Y16.0503 
G01 X-20.5667 Y16.2171 
G01 X-20.6019 Y16.3943 
G01 X-20.6019 Y17.8957 
G01 X-20.5667 Y18.0729 
G01 X-20.4976 Y18.2397 
G01 X-20.3972 Y18.3899 
G01 X-20.2695 Y18.5176 
G01 X-20.1193 Y18.6180 
G01 X-19.9525 Y18.6871 
G01 X-19.7753 Y18.7223 
G01 X-19.5947 Y18.7223 
G01 X-19.4175 Y18.6871 
G01 X-19.2507 Y18.6180 
G01 X-19.1005 Y18.5176 
G01 X-18.9728 Y18.3899 
G01 X-18.8724 Y18.2397 
G01 X-18.8033 Y18.0729 
G01 X-18.7681 Y17.8957 
G00 Z0.5080 
G00 X-21.3081 Y17.8957 
G01 Z-0.2540 F254.00 
G01 X-21.3081 Y16.3943 
G01 X-21.3433 Y16.2171 
G01 X-21.4124 Y16.0503 
G01 X-21.5128 Y15.9001 
G01 X-21.6405 Y15.7724 
G01 X-21.7907 Y15.6720 
G01 X-21.9575 Y15.6029 
G01 X-22.1347 Y15.5677 
G01 X-22.3153 Y15.5677 
G01 X-22.4925 Y15.6029 
G01 X-22.6593 Y15.6720 
G01 X-22.8095 Y15.7724 
G01 X-22.9372 Y15.9001 
G01 X-23.0376 Y16.0503 
G01 X-23.1067 Y16.2171 
G01 X-23.1419 Y16.3943 
G01 X-23.1419 Y17.8957 
G01 X-23.1067 Y18.0729 
G01 X-23.0376 Y18.2397 
G01 X-22.9372 Y18.3899 
G01 X-22.8095 Y18.5176 
G01 X-22.6593 Y18.6180 
G01 X-22.4925 Y18.6871 
G01 X-22.3153 Y18.7223 
G01 X-22.1347 Y18.7223 
G01 X-21.9575 Y18.6871 
G01 X-21.7907 Y18.6180 
G01 X-21.6405 Y18.5176 
G01 X-21.5128 Y18.3899 
G01 X-21.4124 Y18.2397 
G01 X-21.3433 Y18.0729 
G01 X-21.3081 Y17.8957 
G00 Z0.5080 
G00 X-28.9281 Y17.8957 
G01 Z-0.2540 F254.00 
G01 X-28.9281 Y16.3943 
G01 X-28.9633 Y16.2171 
G01 X-29.0324 Y16.0503 
G01 X-29.1328 Y15.9001 
G01 X-29.2605 Y15.7724 
G01 X-29.4107 Y15.6720 
G01 X-29.5775 Y15.6029 
G01 X-29.7547 Y15.5677 
G01 X-29.9353 Y15.5677 
G01 X-30.1125 Y15.6029 
G01 X-30.2793 Y15.6720 
G01 X-30.4295 Y15.7724 
G01 X-30.5572 Y15.9001 
G01 X-30.6576 Y16.0503 
G01 X-30.7267 Y16.2171 
G01 X-30.7619 Y16.3943 
G01 X-30.7619 Y17.8957 
G01 X-30.7267 Y18.0729 
G01 X-30.6576 Y18.2397 
G01 X-30.5572 Y18.3899 
G01 X-30.4295 Y18.5176 
G01 X-30.2793 Y18.6180 
G01 X-30.1125 Y18.6871 
G01 X-29.9353 Y18.7223 
G01 X-29.7547 Y18.7223 
G01 X-29.5775 Y18.6871 
G01 X-29.4107 Y18.6180 
G01 X-29.2605 Y18.5176 
G01 X-29.1328 Y18.3899 
G01 X-29.0324 Y18.2397 
G01 X-28.9633 Y18.0729 
G01 X-28.9281 Y17.8957 
G00 Z0.5080 
G00 X-34.0081 Y10.2757 
G01 Z-0.2540 F254.00 
G01 X-34.0081 Y8.7743 
G01 X-34.0433 Y8.5971 
G01 X-34.1124 Y8.4303 
G01 X-34.2128 Y8.2801 
G01 X-34.3405 Y8.1524 
G01 X-34.4907 Y8.0520 
G01 X-34.6575 Y7.9829 
G01 X-34.8347 Y7.9477 
G01 X-35.0153 Y7.9477 
G01 X-35.1925 Y7.9829 
G01 X-35.3593 Y8.0520 
G01 X-35.5095 Y8.1524 
G01 X-35.6372 Y8.2801 
G01 X-35.7376 Y8.4303 
G01 X-35.8067 Y8.5971 
G01 X-35.8419 Y8.7743 
G01 X-35.8419 Y10.2757 
G01 X-35.8067 Y10.4529 
G01 X-35.7376 Y10.6197 
G01 X-35.6372 Y10.7699 
G01 X-35.5095 Y10.8976 
G01 X-35.3593 Y10.9980 
G01 X-35.1925 Y11.0671 
G01 X-35.0153 Y11.1023 
G01 X-34.8347 Y11.1023 
G01 X-34.6575 Y11.0671 
G01 X-34.4907 Y10.9980 
G01 X-34.3405 Y10.8976 
G01 X-34.2128 Y10.7699 
G01 X-34.1124 Y10.6197 
G01 X-34.0433 Y10.4529 
G01 X-34.0081 Y10.2757 
G00 Z0.5080 
G00 X-31.4681 Y10.2757 
G01 Z-0.2540 F254.00 
G01 X-31.4681 Y8.7743 
G01 X-31.5033 Y8.5971 
G01 X-31.5724 Y8.4303 
G01 X-31.6728 Y8.2801 
G01 X-31.8005 Y8.1524 
G01 X-31.9507 Y8.0520 
G01 X-32.1175 Y7.9829 
G01 X-32.2947 Y7.9477 
G01 X-32.4753 Y7.9477 
G01 X-32.6525 Y7.9829 
G01 X-32.8193 Y8.0520 
G01 X-32.9695 Y8.1524 
G01 X-33.0972 Y8.2801 
G01 X-33.1976 Y8.4303 
G01 X-33.2667 Y8.5971 
G01 X-33.3019 Y8.7743 
G01 X-33.3019 Y10.2757 
G01 X-33.2667 Y10.4529 
G01 X-33.1976 Y10.6197 
G01 X-33.0972 Y10.7699 
G01 X-32.9695 Y10.8976 
G01 X-32.8193 Y10.9980 
G01 X-32.6525 Y11.0671 
G01 X-32.4753 Y11.1023 
G01 X-32.2947 Y11.1023 
G01 X-32.1175 Y11.0671 
G01 X-31.9507 Y10.9980 
G01 X-31.8005 Y10.8976 
G01 X-31.6728 Y10.7699 
G01 X-31.5724 Y10.6197 
G01 X-31.5033 Y10.4529 
G01 X-31.4681 Y10.2757 
G00 Z0.5080 
G00 X-28.9281 Y10.2757 
G01 Z-0.2540 F254.00 
G01 X-28.9281 Y8.7743 
G01 X-28.9633 Y8.5971 
G01 X-29.0324 Y8.4303 
G01 X-29.1328 Y8.2801 
G01 X-29.2605 Y8.1524 
G01 X-29.4107 Y8.0520 
G01 X-29.5775 Y7.9829 
G01 X-29.7547 Y7.9477 
G01 X-29.9353 Y7.9477 
G01 X-30.1125 Y7.9829 
G01 X-30.2793 Y8.0520 
G01 X-30.4295 Y8.1524 
G01 X-30.5572 Y8.2801 
G01 X-30.6576 Y8.4303 
G01 X-30.7267 Y8.5971 
G01 X-30.7619 Y8.7743 
G01 X-30.7619 Y10.2757 
G01 X-30.7267 Y10.4529 
G01 X-30.6576 Y10.6197 
G01 X-30.5572 Y10.7699 
G01 X-30.4295 Y10.8976 
G01 X-30.2793 Y10.9980 
G01 X-30.1125 Y11.0671 
G01 X-29.9353 Y11.1023 
G01 X-29.7547 Y11.1023 
G01 X-29.5775 Y11.0671 
G01 X-29.4107 Y10.9980 
G01 X-29.2605 Y10.8976 
G01 X-29.1328 Y10.7699 
G01 X-29.0324 Y10.6197 
G01 X-28.9633 Y10.4529 
G01 X-28.9281 Y10.2757 
G00 Z0.5080 
G00 X-26.3881 Y10.2757 
G01 Z-0.2540 F254.00 
G01 X-26.3881 Y8.7743 
G01 X-26.4233 Y8.5971 
G01 X-26.4924 Y8.4303 
G01 X-26.5928 Y8.2801 
G01 X-26.7205 Y8.1524 
G01 X-26.8707 Y8.0520 
G01 X-27.0375 Y7.9829 
G01 X-27.2147 Y7.9477 
G01 X-27.3953 Y7.9477 
G01 X-27.5725 Y7.9829 
G01 X-27.7393 Y8.0520 
G01 X-27.8895 Y8.1524 
G01 X-28.0172 Y8.2801 
G01 X-28.1176 Y8.4303 
G01 X-28.1867 Y8.5971 
G01 X-28.2219 Y8.7743 
G01 X-28.2219 Y10.2757 
G01 X-28.1867 Y10.4529 
G01 X-28.1176 Y10.6197 
G01 X-28.0172 Y10.7699 
G01 X-27.8895 Y10.8976 
G01 X-27.7393 Y10.9980 
G01 X-27.5725 Y11.0671 
G01 X-27.3953 Y11.1023 
G01 X-27.2147 Y11.1023 
G01 X-27.0375 Y11.0671 
G01 X-26.8707 Y10.9980 
G01 X-26.7205 Y10.8976 
G01 X-26.5928 Y10.7699 
G01 X-26.4924 Y10.6197 
G01 X-26.4233 Y10.4529 
G01 X-26.3881 Y10.2757 
G00 Z0.5080 
G00 X-21.3081 Y10.2757 
G01 Z-0.2540 F254.00 
G01 X-21.3081 Y8.7743 
G01 X-21.3433 Y8.5971 
G01 X-21.4124 Y8.4303 
G01 X-21.5128 Y8.2801 
G01 X-21.6405 Y8.1524 
G01 X-21.7907 Y8.0520 
G01 X-21.9575 Y7.9829 
G01 X-22.1347 Y7.9477 
G01 X-22.3153 Y7.9477 
G01 X-22.4925 Y7.9829 
G01 X-22.6593 Y8.0520 
G01 X-22.8095 Y8.1524 
G01 X-22.9372 Y8.2801 
G01 X-23.0376 Y8.4303 
G01 X-23.1067 Y8.5971 
G01 X-23.1419 Y8.7743 
G01 X-23.1419 Y10.2757 
G01 X-23.1067 Y10.4529 
G01 X-23.0376 Y10.6197 
G01 X-22.9372 Y10.7699 
G01 X-22.8095 Y10.8976 
G01 X-22.6593 Y10.9980 
G01 X-22.4925 Y11.0671 
G01 X-22.3153 Y11.1023 
G01 X-22.1347 Y11.1023 
G01 X-21.9575 Y11.0671 
G01 X-21.7907 Y10.9980 
G01 X-21.6405 Y10.8976 
G01 X-21.5128 Y10.7699 
G01 X-21.4124 Y10.6197 
G01 X-21.3433 Y10.4529 
G01 X-21.3081 Y10.2757 
G00 Z0.5080 
G00 X-18.7681 Y10.2757 
G01 Z-0.2540 F254.00 
G01 X-18.7681 Y8.7743 
G01 X-18.8033 Y8.5971 
G01 X-18.8724 Y8.4303 
G01 X-18.9728 Y8.2801 
G01 X-19.1005 Y8.1524 
G01 X-19.2507 Y8.0520 
G01 X-19.4175 Y7.9829 
G01 X-19.5947 Y7.9477 
G01 X-19.7753 Y7.9477 
G01 X-19.9525 Y7.9829 
G01 X-20.1193 Y8.0520 
G01 X-20.2695 Y8.1524 
G01 X-20.3972 Y8.2801 
G01 X-20.4976 Y8.4303 
G01 X-20.5667 Y8.5971 
G01 X-20.6019 Y8.7743 
G01 X-20.6019 Y10.2757 
G01 X-20.5667 Y10.4529 
G01 X-20.4976 Y10.6197 
G01 X-20.3972 Y10.7699 
G01 X-20.2695 Y10.8976 
G01 X-20.1193 Y10.9980 
G01 X-19.9525 Y11.0671 
G01 X-19.7753 Y11.1023 
G01 X-19.5947 Y11.1023 
G01 X-19.4175 Y11.0671 
G01 X-19.2507 Y10.9980 
G01 X-19.1005 Y10.8976 
G01 X-18.9728 Y10.7699 
G01 X-18.8724 Y10.6197 
G01 X-18.8033 Y10.4529 
G01 X-18.7681 Y10.2757 
G00 Z0.5080 
G00 X-16.2281 Y10.2757 
G01 Z-0.2540 F254.00 
G01 X-16.2281 Y8.7743 
G01 X-16.2633 Y8.5971 
G01 X-16.3324 Y8.4303 
G01 X-16.4328 Y8.2801 
G01 X-16.5605 Y8.1524 
G01 X-16.7107 Y8.0520 
G01 X-16.8775 Y7.9829 
G01 X-17.0547 Y7.9477 
G01 X-17.2353 Y7.9477 
G01 X-17.4125 Y7.9829 
G01 X-17.5793 Y8.0520 
G01 X-17.7295 Y8.1524 
G01 X-17.8572 Y8.2801 
G01 X-17.9576 Y8.4303 
G01 X-18.0267 Y8.5971 
G01 X-18.0619 Y8.7743 
G01 X-18.0619 Y10.2757 
G01 X-18.0267 Y10.4529 
G01 X-17.9576 Y10.6197 
G01 X-17.8572 Y10.7699 
G01 X-17.7295 Y10.8976 
G01 X-17.5793 Y10.9980 
G01 X-17.4125 Y11.0671 
G01 X-17.2353 Y11.1023 
G01 X-17.0547 Y11.1023 
G01 X-16.8775 Y11.0671 
G01 X-16.7107 Y10.9980 
G01 X-16.5605 Y10.8976 
G01 X-16.4328 Y10.7699 
G01 X-16.3324 Y10.6197 
G01 X-16.2633 Y10.4529 
G01 X-16.2281 Y10.2757 
G00 Z0.5080 
G00 X-13.6881 Y10.2757 
G01 Z-0.2540 F254.00 
G01 X-13.6881 Y8.7743 
G01 X-13.7233 Y8.5971 
G01 X-13.7924 Y8.4303 
G01 X-13.8928 Y8.2801 
G01 X-14.0205 Y8.1524 
G01 X-14.1707 Y8.0520 
G01 X-14.3375 Y7.9829 
G01 X-14.5147 Y7.9477 
G01 X-14.6953 Y7.9477 
G01 X-14.8725 Y7.9829 
G01 X-15.0393 Y8.0520 
G01 X-15.1895 Y8.1524 
G01 X-15.3172 Y8.2801 
G01 X-15.4176 Y8.4303 
G01 X-15.4867 Y8.5971 
G01 X-15.5219 Y8.7743 
G01 X-15.5219 Y10.2757 
G01 X-15.4867 Y10.4529 
G01 X-15.4176 Y10.6197 
G01 X-15.3172 Y10.7699 
G01 X-15.1895 Y10.8976 
G01 X-15.0393 Y10.9980 
G01 X-14.8725 Y11.0671 
G01 X-14.6953 Y11.1023 
G01 X-14.5147 Y11.1023 
G01 X-14.3375 Y11.0671 
G01 X-14.1707 Y10.9980 
G01 X-14.0205 Y10.8976 
G01 X-13.8928 Y10.7699 
G01 X-13.7924 Y10.6197 
G01 X-13.7233 Y10.4529 
G01 X-13.6881 Y10.2757 
G00 Z0.5080 
G00 X-22.9757 Y7.2669 
G01 Z-0.2540 F254.00 
G01 X-21.4743 Y7.2669 
G01 X-21.2971 Y7.2317 
G01 X-21.1303 Y7.1626 
G01 X-20.9801 Y7.0622 
G01 X-20.8524 Y6.9345 
G01 X-20.7520 Y6.7843 
G01 X-20.6829 Y6.6175 
G01 X-20.6477 Y6.4403 
G01 X-20.6477 Y6.2597 
G01 X-20.6829 Y6.0825 
G01 X-20.7520 Y5.9157 
G01 X-20.8524 Y5.7655 
G01 X-20.9801 Y5.6378 
G01 X-21.1303 Y5.5374 
G01 X-21.2971 Y5.4683 
G01 X-21.4743 Y5.4331 
G01 X-22.9757 Y5.4331 
G01 X-23.1529 Y5.4683 
G01 X-23.3197 Y5.5374 
G01 X-23.4699 Y5.6378 
G01 X-23.5976 Y5.7655 
G01 X-23.6980 Y5.9157 
G01 X-23.7671 Y6.0825 
G01 X-23.8023 Y6.2597 
G01 X-23.8023 Y6.4403 
G01 X-23.7671 Y6.6175 
G01 X-23.6980 Y6.7843 
G01 X-23.5976 Y6.9345 
G01 X-23.4699 Y7.0622 
G01 X-23.3197 Y7.1626 
G01 X-23.1529 Y7.2317 
G01 X-22.9757 Y7.2669 
G00 Z0.5080 
G00 X-7.9019 Y18.3247 
G01 Z-0.2540 F254.00 
G01 X-7.9019 Y18.5053 
G01 X-7.8667 Y18.6825 
G01 X-7.7976 Y18.8493 
G01 X-7.6972 Y18.9995 
G01 X-7.5695 Y19.1272 
G01 X-7.4193 Y19.2276 
G01 X-7.2525 Y19.2967 
G01 X-7.0753 Y19.3319 
G01 X-6.8947 Y19.3319 
G01 X-6.7175 Y19.2967 
G01 X-6.5507 Y19.2276 
G01 X-6.4005 Y19.1272 
G01 X-6.2728 Y18.9995 
G01 X-6.1724 Y18.8493 
G01 X-6.1033 Y18.6825 
G01 X-6.0681 Y18.5053 
G01 X-6.0681 Y18.3247 
G01 X-6.1033 Y18.1475 
G01 X-6.1724 Y17.9807 
G01 X-6.2728 Y17.8305 
G01 X-6.4005 Y17.7028 
G01 X-6.5507 Y17.6024 
G01 X-6.7175 Y17.5333 
G01 X-6.8947 Y17.4981 
G01 X-7.0753 Y17.4981 
G01 X-7.2525 Y17.5333 
G01 X-7.4193 Y17.6024 
G01 X-7.5695 Y17.7028 
G01 X-7.6972 Y17.8305 
G01 X-7.7976 Y17.9807 
G01 X-7.8667 Y18.1475 
G01 X-7.9019 Y18.3247 
G00 Z0.5080 
G00 X-2.8219 Y18.0352 
G01 Z-0.2540 F254.00 
G01 X-2.8219 Y18.7948 
G01 X-2.2848 Y19.3319 
G01 X-1.5252 Y19.3319 
G01 X-0.9881 Y18.7948 
G01 X-0.9881 Y18.0352 
G01 X-1.5252 Y17.4981 
G01 X-2.2848 Y17.4981 
G01 X-2.8219 Y18.0352 
G00 Z0.5080 
G00 X-7.9019 Y6.8947 
G01 Z-0.2540 F254.00 
G01 X-7.9019 Y7.0753 
G01 X-7.8667 Y7.2525 
G01 X-7.7976 Y7.4193 
G01 X-7.6972 Y7.5695 
G01 X-7.5695 Y7.6972 
G01 X-7.4193 Y7.7976 
G01 X-7.2525 Y7.8667 
G01 X-7.0753 Y7.9019 
G01 X-6.8947 Y7.9019 
G01 X-6.7175 Y7.8667 
G01 X-6.6921 Y7.8562 
G01 X-5.4889 Y9.0594 
G01 X-5.4889 Y10.2138 
G01 X-5.4611 Y10.3178 
G01 X-5.4072 Y10.4111 
G01 X-4.7269 Y11.0914 
G01 X-4.7269 Y11.8098 
G01 X-4.1898 Y12.3469 
G01 X-3.4302 Y12.3469 
G01 X-2.8931 Y11.8098 
G01 X-2.8931 Y11.0502 
G01 X-3.4302 Y10.5131 
G01 X-4.1486 Y10.5131 
G01 X-4.6711 Y9.9906 
G01 X-4.6711 Y8.8362 
G01 X-4.6989 Y8.7322 
G01 X-4.7528 Y8.6389 
G01 X-4.8289 Y8.5628 
G01 X-6.1138 Y7.2779 
G01 X-6.1033 Y7.2525 
G01 X-6.0681 Y7.0753 
G01 X-6.0681 Y6.8947 
G01 X-6.1033 Y6.7175 
G01 X-6.1724 Y6.5507 
G01 X-6.2728 Y6.4005 
G01 X-6.4005 Y6.2728 
G01 X-6.5507 Y6.1724 
G01 X-6.7175 Y6.1033 
G01 X-6.8947 Y6.0681 
G01 X-7.0753 Y6.0681 
G01 X-7.2525 Y6.1033 
G01 X-7.4193 Y6.1724 
G01 X-7.5695 Y6.2728 
G01 X-7.6972 Y6.4005 
G01 X-7.7976 Y6.5507 
G01 X-7.8667 Y6.7175 
G01 X-7.9019 Y6.8947 
G00 Z0.5080 
G00 X-2.8219 Y6.6052 
G01 Z-0.2540 F254.00 
G01 X-2.8219 Y7.3648 
G01 X-2.2848 Y7.9019 
G01 X-1.5252 Y7.9019 
G01 X-0.9881 Y7.3648 
G01 X-0.9881 Y6.6052 
G01 X-1.5252 Y6.0681 
G01 X-2.2848 Y6.0681 
G01 X-2.8219 Y6.6052 
G00 Z0.5080 
G00 X-20.5003 Y20.9509 
G01 Z-0.2540 F254.00 
G01 X-20.5003 Y22.2291 
G01 X-20.4690 Y22.3866 
G01 X-20.4075 Y22.5350 
G01 X-20.3183 Y22.6685 
G01 X-20.2047 Y22.7821 
G01 X-20.0712 Y22.8713 
G01 X-19.9228 Y22.9328 
G01 X-19.7653 Y22.9641 
G01 X-19.6047 Y22.9641 
G01 X-19.4472 Y22.9328 
G01 X-19.2988 Y22.8713 
G01 X-19.1653 Y22.7821 
G01 X-19.0517 Y22.6685 
G01 X-18.9625 Y22.5350 
G01 X-18.9010 Y22.3866 
G01 X-18.8697 Y22.2291 
G01 X-18.8697 Y20.9509 
G01 X-18.9010 Y20.7934 
G01 X-18.9625 Y20.6450 
G01 X-19.0517 Y20.5114 
G01 X-19.1653 Y20.3979 
G01 X-19.2988 Y20.3087 
G01 X-19.4472 Y20.2472 
G01 X-19.6047 Y20.2159 
G01 X-19.7653 Y20.2159 
G01 X-19.9228 Y20.2472 
G01 X-20.0712 Y20.3087 
G01 X-20.2047 Y20.3979 
G01 X-20.3183 Y20.5114 
G01 X-20.4075 Y20.6450 
G01 X-20.4690 Y20.7934 
G01 X-20.5003 Y20.9509 
G00 Z0.5080 
G00 X-25.5803 Y20.9509 
G01 Z-0.2540 F254.00 
G01 X-25.5803 Y22.2291 
G01 X-25.5490 Y22.3866 
G01 X-25.4875 Y22.5350 
G01 X-25.3983 Y22.6685 
G01 X-25.2847 Y22.7821 
G01 X-25.1512 Y22.8713 
G01 X-25.0028 Y22.9328 
G01 X-24.8453 Y22.9641 
G01 X-24.6847 Y22.9641 
G01 X-24.5272 Y22.9328 
G01 X-24.3788 Y22.8713 
G01 X-24.2453 Y22.7821 
G01 X-24.1317 Y22.6685 
G01 X-24.0425 Y22.5350 
G01 X-23.9810 Y22.3866 
G01 X-23.9497 Y22.2291 
G01 X-23.9497 Y20.9509 
G01 X-23.9810 Y20.7934 
G01 X-24.0425 Y20.6450 
G01 X-24.1317 Y20.5114 
G01 X-24.2453 Y20.3979 
G01 X-24.3788 Y20.3087 
G01 X-24.5272 Y20.2472 
G01 X-24.6847 Y20.2159 
G01 X-24.8453 Y20.2159 
G01 X-25.0028 Y20.2472 
G01 X-25.1512 Y20.3087 
G01 X-25.2847 Y20.3979 
G01 X-25.3983 Y20.5114 
G01 X-25.4875 Y20.6450 
G01 X-25.5490 Y20.7934 
G01 X-25.5803 Y20.9509 
G00 Z0.5080 
G00 X-37.3659 Y13.4056 
G01 Z-0.2540 F254.00 
G01 X-37.3294 Y13.5419 
G01 X-37.2589 Y13.6641 
G01 X-37.1591 Y13.7639 
G01 X-35.4609 Y15.4620 
G01 X-35.4609 Y15.5860 
G01 X-35.4721 Y15.5917 
G01 X-35.6051 Y15.6883 
G01 X-35.7213 Y15.8045 
G01 X-35.8179 Y15.9375 
G01 X-35.8925 Y16.0839 
G01 X-35.9432 Y16.2401 
G01 X-35.9689 Y16.4024 
G01 X-35.9689 Y17.8831 
G01 X-37.5641 Y16.2880 
G01 X-37.5641 Y7.8213 
G01 X-37.4669 Y7.7564 
G01 X-37.3659 Y7.6554 
G01 X-37.3659 Y13.4056 
G00 Z0.5080 
G00 X-38.3682 Y19.7107 
G01 Z-0.2540 F254.00 
G01 X-38.5397 Y19.7664 
G01 X-38.7004 Y19.8482 
G01 X-38.8365 Y19.9471 
G01 X-38.8365 Y9.0852 
G01 X-38.7410 Y9.0214 
G01 X-38.6359 Y8.9164 
G01 X-38.6359 Y16.5806 
G01 X-38.5994 Y16.7169 
G01 X-38.5289 Y16.8391 
G01 X-36.2189 Y19.1491 
G01 X-37.5356 Y19.1491 
G01 X-37.6719 Y19.1856 
G01 X-37.7941 Y19.2561 
G01 X-38.2261 Y19.6882 
G01 X-38.3682 Y19.7107 
G00 Z0.5080 
G00 X-2.9489 Y12.2676 
G01 Z-0.2540 F254.00 
G01 X-2.9489 Y13.1324 
G01 X-2.3374 Y13.7439 
G01 X-1.4726 Y13.7439 
G01 X-0.8611 Y13.1324 
G01 X-0.8611 Y12.2676 
G01 X-1.4726 Y11.6561 
G01 X-2.3374 Y11.6561 
G01 X-2.9489 Y12.2676 
G00 Z0.5080 
G00 X-20.6273 Y20.9384 
G01 Z-0.2540 F254.00 
G01 X-20.6273 Y22.2416 
G01 X-20.5911 Y22.4237 
G01 X-20.5201 Y22.5952 
G01 X-20.4170 Y22.7495 
G01 X-20.2857 Y22.8808 
G01 X-20.1314 Y22.9839 
G01 X-19.9599 Y23.0549 
G01 X-19.7778 Y23.0911 
G01 X-19.5922 Y23.0911 
G01 X-19.4101 Y23.0549 
G01 X-19.2386 Y22.9839 
G01 X-19.0843 Y22.8808 
G01 X-18.9530 Y22.7495 
G01 X-18.8499 Y22.5952 
G01 X-18.7789 Y22.4237 
G01 X-18.7427 Y22.2416 
G01 X-18.7427 Y20.9384 
G01 X-18.7789 Y20.7563 
G01 X-18.8499 Y20.5848 
G01 X-18.9530 Y20.4305 
G01 X-19.0843 Y20.2992 
G01 X-19.2386 Y20.1961 
G01 X-19.4101 Y20.1251 
G01 X-19.5922 Y20.0889 
G01 X-19.7778 Y20.0889 
G01 X-19.9599 Y20.1251 
G01 X-20.1314 Y20.1961 
G01 X-20.2857 Y20.2992 
G01 X-20.4170 Y20.4305 
G01 X-20.5201 Y20.5848 
G01 X-20.5911 Y20.7563 
G01 X-20.6273 Y20.9384 
G00 Z0.5080 
G00 X-2.9489 Y6.5526 
G01 Z-0.2540 F254.00 
G01 X-2.9489 Y7.4174 
G01 X-2.3374 Y8.0289 
G01 X-1.4726 Y8.0289 
G01 X-0.8611 Y7.4174 
G01 X-0.8611 Y6.5526 
G01 X-1.4726 Y5.9411 
G01 X-2.3374 Y5.9411 
G01 X-2.9489 Y6.5526 
G00 Z0.5080 
G00 X-8.0289 Y6.9028 
G01 Z-0.2540 F254.00 
G01 X-8.0289 Y7.0672 
G01 X-8.0032 Y7.2295 
G01 X-7.9525 Y7.3857 
G01 X-7.8779 Y7.5321 
G01 X-7.7813 Y7.6651 
G01 X-7.6651 Y7.7813 
G01 X-7.5321 Y7.8779 
G01 X-7.3857 Y7.9525 
G01 X-7.2295 Y8.0032 
G01 X-7.0672 Y8.0289 
G01 X-6.9028 Y8.0289 
G01 X-6.7405 Y8.0032 
G01 X-6.7286 Y7.9993 
G01 X-5.6159 Y9.1120 
G01 X-5.6159 Y10.2306 
G01 X-5.5794 Y10.3669 
G01 X-5.5089 Y10.4891 
G01 X-4.8539 Y11.1440 
G01 X-4.8539 Y11.8624 
G01 X-4.2424 Y12.4739 
G01 X-3.3776 Y12.4739 
G01 X-2.7661 Y11.8624 
G01 X-2.7661 Y10.9976 
G01 X-3.3776 Y10.3861 
G01 X-4.0960 Y10.3861 
G01 X-4.5441 Y9.9380 
G01 X-4.5441 Y8.8194 
G01 X-4.5806 Y8.6831 
G01 X-4.6511 Y8.5609 
G01 X-4.7509 Y8.4611 
G01 X-5.9707 Y7.2414 
G01 X-5.9668 Y7.2295 
G01 X-5.9411 Y7.0672 
G01 X-5.9411 Y6.9028 
G01 X-5.9668 Y6.7405 
G01 X-6.0175 Y6.5843 
G01 X-6.0921 Y6.4379 
G01 X-6.1887 Y6.3049 
G01 X-6.3049 Y6.1887 
G01 X-6.4379 Y6.0921 
G01 X-6.5843 Y6.0175 
G01 X-6.7405 Y5.9668 
G01 X-6.9028 Y5.9411 
G01 X-7.0672 Y5.9411 
G01 X-7.2295 Y5.9668 
G01 X-7.3857 Y6.0175 
G01 X-7.5321 Y6.0921 
G01 X-7.6651 Y6.1887 
G01 X-7.7813 Y6.3049 
G01 X-7.8779 Y6.4379 
G01 X-7.9525 Y6.5843 
G01 X-8.0032 Y6.7405 
G01 X-8.0289 Y6.9028 
G00 Z0.5080 
G00 X-2.9489 Y17.9826 
G01 Z-0.2540 F254.00 
G01 X-2.9489 Y18.8474 
G01 X-2.3374 Y19.4589 
G01 X-1.4726 Y19.4589 
G01 X-0.8611 Y18.8474 
G01 X-0.8611 Y17.9826 
G01 X-1.4726 Y17.3711 
G01 X-2.3374 Y17.3711 
G01 X-2.9489 Y17.9826 
G00 Z0.5080 
G00 X-8.0289 Y18.3328 
G01 Z-0.2540 F254.00 
G01 X-8.0289 Y18.4972 
G01 X-8.0032 Y18.6595 
G01 X-7.9525 Y18.8157 
G01 X-7.8779 Y18.9621 
G01 X-7.7813 Y19.0951 
G01 X-7.6651 Y19.2113 
G01 X-7.5321 Y19.3079 
G01 X-7.3857 Y19.3825 
G01 X-7.2295 Y19.4332 
G01 X-7.0672 Y19.4589 
G01 X-6.9028 Y19.4589 
G01 X-6.7405 Y19.4332 
G01 X-6.5843 Y19.3825 
G01 X-6.4379 Y19.3079 
G01 X-6.3049 Y19.2113 
G01 X-6.1887 Y19.0951 
G01 X-6.0921 Y18.9621 
G01 X-6.0175 Y18.8157 
G01 X-5.9668 Y18.6595 
G01 X-5.9411 Y18.4972 
G01 X-5.9411 Y18.3328 
G01 X-5.9668 Y18.1705 
G01 X-6.0175 Y18.0143 
G01 X-6.0921 Y17.8679 
G01 X-6.1887 Y17.7349 
G01 X-6.3049 Y17.6187 
G01 X-6.4379 Y17.5221 
G01 X-6.5843 Y17.4475 
G01 X-6.7405 Y17.3968 
G01 X-6.9028 Y17.3711 
G01 X-7.0672 Y17.3711 
G01 X-7.2295 Y17.3968 
G01 X-7.3857 Y17.4475 
G01 X-7.5321 Y17.5221 
G01 X-7.6651 Y17.6187 
G01 X-7.7813 Y17.7349 
G01 X-7.8779 Y17.8679 
G01 X-7.9525 Y18.0143 
G01 X-8.0032 Y18.1705 
G01 X-8.0289 Y18.3328 
G00 Z0.5080 
G00 X-22.9676 Y7.3939 
G01 Z-0.2540 F254.00 
G01 X-21.4824 Y7.3939 
G01 X-21.3201 Y7.3682 
G01 X-21.1639 Y7.3175 
G01 X-21.0175 Y7.2429 
G01 X-20.8845 Y7.1463 
G01 X-20.7683 Y7.0301 
G01 X-20.6717 Y6.8971 
G01 X-20.5971 Y6.7507 
G01 X-20.5464 Y6.5945 
G01 X-20.5207 Y6.4322 
G01 X-20.5207 Y6.2678 
G01 X-20.5464 Y6.1055 
G01 X-20.5971 Y5.9493 
G01 X-20.6717 Y5.8029 
G01 X-20.7683 Y5.6699 
G01 X-20.8845 Y5.5537 
G01 X-21.0175 Y5.4571 
G01 X-21.1639 Y5.3825 
G01 X-21.3201 Y5.3318 
G01 X-21.4824 Y5.3061 
G01 X-22.9676 Y5.3061 
G01 X-23.1299 Y5.3318 
G01 X-23.2861 Y5.3825 
G01 X-23.4325 Y5.4571 
G01 X-23.5655 Y5.5537 
G01 X-23.6817 Y5.6699 
G01 X-23.7783 Y5.8029 
G01 X-23.8529 Y5.9493 
G01 X-23.9036 Y6.1055 
G01 X-23.9293 Y6.2678 
G01 X-23.9293 Y6.4322 
G01 X-23.9036 Y6.5945 
G01 X-23.8529 Y6.7507 
G01 X-23.7783 Y6.8971 
G01 X-23.6817 Y7.0301 
G01 X-23.5655 Y7.1463 
G01 X-23.4325 Y7.2429 
G01 X-23.2861 Y7.3175 
G01 X-23.1299 Y7.3682 
G01 X-22.9676 Y7.3939 
G00 Z0.5080 
G00 X-13.5611 Y10.2676 
G01 Z-0.2540 F254.00 
G01 X-13.5611 Y8.7824 
G01 X-13.5868 Y8.6201 
G01 X-13.6375 Y8.4639 
G01 X-13.7121 Y8.3175 
G01 X-13.8087 Y8.1845 
G01 X-13.9249 Y8.0683 
G01 X-14.0579 Y7.9717 
G01 X-14.2043 Y7.8971 
G01 X-14.3605 Y7.8464 
G01 X-14.5228 Y7.8207 
G01 X-14.6872 Y7.8207 
G01 X-14.8495 Y7.8464 
G01 X-15.0057 Y7.8971 
G01 X-15.1521 Y7.9717 
G01 X-15.2851 Y8.0683 
G01 X-15.4013 Y8.1845 
G01 X-15.4979 Y8.3175 
G01 X-15.5725 Y8.4639 
G01 X-15.6232 Y8.6201 
G01 X-15.6489 Y8.7824 
G01 X-15.6489 Y10.2676 
G01 X-15.6232 Y10.4299 
G01 X-15.5725 Y10.5861 
G01 X-15.4979 Y10.7325 
G01 X-15.4013 Y10.8655 
G01 X-15.2851 Y10.9817 
G01 X-15.1521 Y11.0783 
G01 X-15.0057 Y11.1529 
G01 X-14.8495 Y11.2036 
G01 X-14.6872 Y11.2293 
G01 X-14.5228 Y11.2293 
G01 X-14.3605 Y11.2036 
G01 X-14.2043 Y11.1529 
G01 X-14.0579 Y11.0783 
G01 X-13.9249 Y10.9817 
G01 X-13.8087 Y10.8655 
G01 X-13.7121 Y10.7325 
G01 X-13.6375 Y10.5861 
G01 X-13.5868 Y10.4299 
G01 X-13.5611 Y10.2676 
G00 Z0.5080 
G00 X-16.1011 Y10.2676 
G01 Z-0.2540 F254.00 
G01 X-16.1011 Y8.7824 
G01 X-16.1268 Y8.6201 
G01 X-16.1775 Y8.4639 
G01 X-16.2521 Y8.3175 
G01 X-16.3487 Y8.1845 
G01 X-16.4649 Y8.0683 
G01 X-16.5979 Y7.9717 
G01 X-16.7443 Y7.8971 
G01 X-16.9005 Y7.8464 
G01 X-17.0628 Y7.8207 
G01 X-17.2272 Y7.8207 
G01 X-17.3895 Y7.8464 
G01 X-17.5457 Y7.8971 
G01 X-17.6921 Y7.9717 
G01 X-17.8251 Y8.0683 
G01 X-17.9413 Y8.1845 
G01 X-18.0379 Y8.3175 
G01 X-18.1125 Y8.4639 
G01 X-18.1632 Y8.6201 
G01 X-18.1889 Y8.7824 
G01 X-18.1889 Y10.2676 
G01 X-18.1632 Y10.4299 
G01 X-18.1125 Y10.5861 
G01 X-18.0379 Y10.7325 
G01 X-17.9413 Y10.8655 
G01 X-17.8251 Y10.9817 
G01 X-17.6921 Y11.0783 
G01 X-17.5457 Y11.1529 
G01 X-17.3895 Y11.2036 
G01 X-17.2272 Y11.2293 
G01 X-17.0628 Y11.2293 
G01 X-16.9005 Y11.2036 
G01 X-16.7443 Y11.1529 
G01 X-16.5979 Y11.0783 
G01 X-16.4649 Y10.9817 
G01 X-16.3487 Y10.8655 
G01 X-16.2521 Y10.7325 
G01 X-16.1775 Y10.5861 
G01 X-16.1268 Y10.4299 
G01 X-16.1011 Y10.2676 
G00 Z0.5080 
G00 X-18.6411 Y10.2676 
G01 Z-0.2540 F254.00 
G01 X-18.6411 Y8.7824 
G01 X-18.6668 Y8.6201 
G01 X-18.7175 Y8.4639 
G01 X-18.7921 Y8.3175 
G01 X-18.8887 Y8.1845 
G01 X-19.0049 Y8.0683 
G01 X-19.1379 Y7.9717 
G01 X-19.2843 Y7.8971 
G01 X-19.4405 Y7.8464 
G01 X-19.6028 Y7.8207 
G01 X-19.7672 Y7.8207 
G01 X-19.9295 Y7.8464 
G01 X-20.0857 Y7.8971 
G01 X-20.2321 Y7.9717 
G01 X-20.3651 Y8.0683 
G01 X-20.4813 Y8.1845 
G01 X-20.5779 Y8.3175 
G01 X-20.6525 Y8.4639 
G01 X-20.7032 Y8.6201 
G01 X-20.7289 Y8.7824 
G01 X-20.7289 Y10.2676 
G01 X-20.7032 Y10.4299 
G01 X-20.6525 Y10.5861 
G01 X-20.5779 Y10.7325 
G01 X-20.4813 Y10.8655 
G01 X-20.3651 Y10.9817 
G01 X-20.2321 Y11.0783 
G01 X-20.0857 Y11.1529 
G01 X-19.9295 Y11.2036 
G01 X-19.7672 Y11.2293 
G01 X-19.6028 Y11.2293 
G01 X-19.4405 Y11.2036 
G01 X-19.2843 Y11.1529 
G01 X-19.1379 Y11.0783 
G01 X-19.0049 Y10.9817 
G01 X-18.8887 Y10.8655 
G01 X-18.7921 Y10.7325 
G01 X-18.7175 Y10.5861 
G01 X-18.6668 Y10.4299 
G01 X-18.6411 Y10.2676 
G00 Z0.5080 
G00 X-21.1811 Y10.2676 
G01 Z-0.2540 F254.00 
G01 X-21.1811 Y8.7824 
G01 X-21.2068 Y8.6201 
G01 X-21.2575 Y8.4639 
G01 X-21.3321 Y8.3175 
G01 X-21.4287 Y8.1845 
G01 X-21.5449 Y8.0683 
G01 X-21.6779 Y7.9717 
G01 X-21.8243 Y7.8971 
G01 X-21.9805 Y7.8464 
G01 X-22.1428 Y7.8207 
G01 X-22.3072 Y7.8207 
G01 X-22.4695 Y7.8464 
G01 X-22.6257 Y7.8971 
G01 X-22.7721 Y7.9717 
G01 X-22.9051 Y8.0683 
G01 X-23.0213 Y8.1845 
G01 X-23.1179 Y8.3175 
G01 X-23.1925 Y8.4639 
G01 X-23.2432 Y8.6201 
G01 X-23.2689 Y8.7824 
G01 X-23.2689 Y10.2676 
G01 X-23.2432 Y10.4299 
G01 X-23.1925 Y10.5861 
G01 X-23.1179 Y10.7325 
G01 X-23.0213 Y10.8655 
G01 X-22.9051 Y10.9817 
G01 X-22.7721 Y11.0783 
G01 X-22.6257 Y11.1529 
G01 X-22.4695 Y11.2036 
G01 X-22.3072 Y11.2293 
G01 X-22.1428 Y11.2293 
G01 X-21.9805 Y11.2036 
G01 X-21.8243 Y11.1529 
G01 X-21.6779 Y11.0783 
G01 X-21.5449 Y10.9817 
G01 X-21.4287 Y10.8655 
G01 X-21.3321 Y10.7325 
G01 X-21.2575 Y10.5861 
G01 X-21.2068 Y10.4299 
G01 X-21.1811 Y10.2676 
G00 Z0.5080 
G00 X-23.7211 Y10.2676 
G01 Z-0.2540 F254.00 
G01 X-23.7211 Y8.7824 
G01 X-23.7468 Y8.6201 
G01 X-23.7975 Y8.4639 
G01 X-23.8721 Y8.3175 
G01 X-23.9687 Y8.1845 
G01 X-24.0849 Y8.0683 
G01 X-24.2179 Y7.9717 
G01 X-24.3643 Y7.8971 
G01 X-24.5205 Y7.8464 
G01 X-24.6828 Y7.8207 
G01 X-24.8472 Y7.8207 
G01 X-25.0095 Y7.8464 
G01 X-25.1657 Y7.8971 
G01 X-25.3121 Y7.9717 
G01 X-25.4451 Y8.0683 
G01 X-25.5613 Y8.1845 
G01 X-25.6579 Y8.3175 
G01 X-25.7325 Y8.4639 
G01 X-25.7832 Y8.6201 
G01 X-25.8089 Y8.7824 
G01 X-25.8089 Y10.2676 
G01 X-25.7832 Y10.4299 
G01 X-25.7325 Y10.5861 
G01 X-25.6579 Y10.7325 
G01 X-25.6050 Y10.8053 
G01 X-26.4908 Y11.6910 
G01 X-26.5550 Y11.7871 
G01 X-26.5992 Y11.8939 
G01 X-26.6217 Y12.0072 
G01 X-26.6217 Y15.6915 
G01 X-26.6249 Y15.6883 
G01 X-26.7579 Y15.5917 
G01 X-26.9043 Y15.5171 
G01 X-27.0605 Y15.4664 
G01 X-27.2228 Y15.4407 
G01 X-27.3872 Y15.4407 
G01 X-27.5495 Y15.4664 
G01 X-27.7057 Y15.5171 
G01 X-27.8521 Y15.5917 
G01 X-27.9851 Y15.6883 
G01 X-28.1013 Y15.8045 
G01 X-28.1979 Y15.9375 
G01 X-28.2725 Y16.0839 
G01 X-28.3232 Y16.2401 
G01 X-28.3489 Y16.4024 
G01 X-28.3489 Y17.8876 
G01 X-28.3232 Y18.0499 
G01 X-28.2725 Y18.2061 
G01 X-28.1979 Y18.3525 
G01 X-28.1013 Y18.4855 
G01 X-27.9851 Y18.6017 
G01 X-27.8521 Y18.6983 
G01 X-27.8409 Y18.7040 
G01 X-27.8409 Y18.8280 
G01 X-28.1620 Y19.1491 
G01 X-32.3611 Y19.1491 
G01 X-32.0559 Y18.8439 
G01 X-32.0559 Y18.8439 
G01 X-31.9852 Y18.7732 
G01 X-31.9843 Y18.7729 
G01 X-31.8379 Y18.6983 
G01 X-31.7049 Y18.6017 
G01 X-31.5887 Y18.4855 
G01 X-31.4921 Y18.3525 
G01 X-31.4175 Y18.2061 
G01 X-31.3668 Y18.0499 
G01 X-31.3411 Y17.8876 
G01 X-31.3411 Y16.4024 
G01 X-31.3668 Y16.2401 
G01 X-31.4175 Y16.0839 
G01 X-31.4921 Y15.9375 
G01 X-31.5887 Y15.8045 
G01 X-31.7049 Y15.6883 
G01 X-31.8379 Y15.5917 
G01 X-31.9843 Y15.5171 
G01 X-32.1405 Y15.4664 
G01 X-32.3028 Y15.4407 
G01 X-32.4672 Y15.4407 
G01 X-32.6295 Y15.4664 
G01 X-32.7857 Y15.5171 
G01 X-32.9321 Y15.5917 
G01 X-33.0651 Y15.6883 
G01 X-33.1813 Y15.8045 
G01 X-33.2779 Y15.9375 
G01 X-33.3525 Y16.0839 
G01 X-33.4032 Y16.2401 
G01 X-33.4289 Y16.4024 
G01 X-33.4289 Y17.8876 
G01 X-33.4032 Y18.0499 
G01 X-33.3525 Y18.2061 
G01 X-33.2779 Y18.3525 
G01 X-33.1948 Y18.4669 
G01 X-33.2420 Y18.5141 
G01 X-34.1573 Y18.5141 
G01 X-34.1287 Y18.4855 
G01 X-34.0321 Y18.3525 
G01 X-33.9575 Y18.2061 
G01 X-33.9068 Y18.0499 
G01 X-33.8811 Y17.8876 
G01 X-33.8811 Y16.4024 
G01 X-33.9068 Y16.2401 
G01 X-33.9575 Y16.0839 
G01 X-34.0321 Y15.9375 
G01 X-34.1287 Y15.8045 
G01 X-34.2449 Y15.6883 
G01 X-34.3779 Y15.5917 
G01 X-34.3891 Y15.5860 
G01 X-34.3891 Y15.1694 
G01 X-34.4256 Y15.0331 
G01 X-34.4961 Y14.9109 
G01 X-36.2941 Y13.1130 
G01 X-36.2941 Y7.2070 
G01 X-34.7030 Y5.6159 
G01 X-33.7877 Y5.6159 
G01 X-33.8417 Y5.6699 
G01 X-33.9383 Y5.8029 
G01 X-34.0129 Y5.9493 
G01 X-34.0636 Y6.1055 
G01 X-34.0893 Y6.2678 
G01 X-34.0893 Y6.4322 
G01 X-34.0636 Y6.5945 
G01 X-34.0129 Y6.7507 
G01 X-33.9383 Y6.8971 
G01 X-33.8417 Y7.0301 
G01 X-33.7255 Y7.1463 
G01 X-33.5925 Y7.2429 
G01 X-33.4461 Y7.3175 
G01 X-33.2899 Y7.3682 
G01 X-33.1276 Y7.3939 
G01 X-31.6424 Y7.3939 
G01 X-31.4801 Y7.3682 
G01 X-31.3239 Y7.3175 
G01 X-31.1775 Y7.2429 
G01 X-31.0445 Y7.1463 
G01 X-30.9283 Y7.0301 
G01 X-30.8317 Y6.8971 
G01 X-30.7571 Y6.7507 
G01 X-30.7064 Y6.5945 
G01 X-30.6807 Y6.4322 
G01 X-30.6807 Y6.2678 
G01 X-30.7064 Y6.1055 
G01 X-30.7571 Y5.9493 
G01 X-30.8317 Y5.8029 
G01 X-30.9283 Y5.6699 
G01 X-31.0445 Y5.5537 
G01 X-31.1775 Y5.4571 
G01 X-31.3239 Y5.3825 
